NexEditor_IOS/NexEditorSDKTests/NexEditorSDKTests/bundles/T&O - RMN Z1.cube
# Created by: Riyaz MN
LUT_3D_SIZE 32
0.065797 0.065980 0.065919
0.065797 0.065980 0.065919
0.065797 0.065980 0.065919
0.065797 0.065980 0.065919
0.080140 0.066590 0.067445
0.148775 0.065278 0.070619
0.227756 0.062745 0.070527
0.292485 0.062745 0.069032
0.349187 0.062745 0.067536
0.401648 0.062745 0.066712
0.451881 0.062745 0.066316
0.500008 0.062745 0.065644
0.546014 0.062745 0.065003
0.588891 0.062745 0.064271
0.625452 0.062745 0.062745
0.660792 0.062745 0.062745
0.694514 0.062745 0.062745
0.726467 0.062745 0.062745
0.756832 0.062745 0.062745
0.785611 0.062745 0.062745
0.813138 0.062745 0.062745
0.840452 0.062745 0.062745
0.867552 0.062745 0.063294
0.894347 0.062745 0.066682
0.921019 0.062745 0.071290
0.921569 0.072663 0.077394
0.921569 0.083864 0.085420
0.921569 0.096223 0.095491
0.921569 0.112245 0.108156
0.921569 0.141634 0.124666
0.921569 0.168246 0.144717
0.921569 0.193027 0.165988
0.065797 0.065980 0.065919
0.065797 0.065980 0.065919
0.065797 0.065980 0.065919
0.065797 0.065980 0.065919
0.113893 0.066773 0.069886
0.189822 0.062745 0.070863
0.255406 0.062745 0.070039
0.313024 0.062745 0.068452
0.365850 0.062745 0.067201
0.414740 0.062745 0.066651
0.459144 0.062745 0.065736
0.500053 0.062745 0.064118
0.540154 0.062745 0.062745
0.579278 0.062745 0.062745
0.617090 0.062745 0.062745
0.653193 0.062745 0.062745
0.687587 0.062745 0.062745
0.720333 0.062745 0.062745
0.751278 0.064027 0.062745
0.780514 0.070436 0.062745
0.808682 0.076844 0.062745
0.836484 0.083711 0.062745
0.864103 0.090730 0.063813
0.891295 0.098268 0.067628
0.918273 0.106447 0.072877
0.921569 0.115572 0.079622
0.921569 0.125704 0.088167
0.921569 0.137209 0.098756
0.921569 0.160281 0.112917
0.921569 0.181460 0.130159
0.921569 0.202640 0.150576
0.921569 0.222202 0.171847
0.065797 0.065980 0.065919
0.065797 0.065980 0.065919
0.065797 0.065980 0.065919
0.088869 0.067872 0.068452
0.151003 0.071046 0.070893
0.209049 0.072541 0.070466
0.261784 0.073793 0.069062
0.311070 0.074739 0.066987
0.357366 0.076265 0.065248
0.402014 0.079500 0.063783
0.445777 0.082918 0.062745
0.488350 0.086610 0.062745
0.529778 0.090578 0.062745
0.569940 0.094759 0.062745
0.608698 0.098665 0.062745
0.645563 0.103090 0.062745
0.680659 0.107515 0.062745
0.713985 0.111879 0.062745
0.745449 0.116304 0.062745
0.775174 0.120790 0.062745
0.803861 0.125856 0.062745
0.832212 0.130800 0.062745
0.860197 0.136477 0.064637
0.887785 0.142672 0.068971
0.915129 0.148806 0.074617
0.921569 0.156039 0.082002
0.921569 0.163363 0.091066
0.921569 0.179294 0.102937
0.921569 0.196475 0.117617
0.921569 0.213657 0.135988
0.921569 0.230869 0.156252
0.921569 0.246647 0.177493
0.062745 0.089174 0.073182
0.062745 0.093568 0.074372
0.062745 0.098024 0.075471
0.096925 0.092103 0.066651
0.137362 0.107515 0.071534
0.187015 0.120180 0.071046
0.241489 0.126833 0.068360
0.292332 0.131472 0.065644
0.340948 0.134951 0.063264
0.387640 0.138766 0.062745
0.433112 0.141970 0.062745
0.477028 0.145357 0.062745
0.519493 0.148440 0.062745
0.560815 0.151339 0.062745
0.600488 0.153902 0.062745
0.638117 0.156741 0.062745
0.674006 0.159091 0.062745
0.707851 0.161563 0.062745
0.739986 0.163821 0.062745
0.770169 0.166262 0.062745
0.799496 0.168734 0.062745
0.828275 0.171633 0.062745
0.856687 0.174685 0.065888
0.884611 0.178439 0.070649
0.912139 0.182681 0.076814
0.921569 0.187655 0.084596
0.921569 0.198581 0.094545
0.921569 0.212375 0.107088
0.921569 0.226596 0.122774
0.921569 0.241184 0.141604
0.921569 0.254795 0.161593
0.921569 0.268193 0.182773
0.062745 0.133639 0.083742
0.062745 0.138827 0.084871
0.062745 0.141604 0.062745
0.103365 0.135958 0.062745
0.152865 0.124453 0.063996
0.190219 0.148074 0.066804
0.224338 0.164218 0.069642
0.276280 0.172030 0.065858
0.326390 0.177340 0.062898
0.374640 0.181918 0.062745
0.421332 0.185489 0.062745
0.466468 0.188449 0.062745
0.510063 0.190921 0.062745
0.552148 0.192996 0.062745
0.592432 0.194888 0.062745
0.630701 0.196262 0.062745
0.667231 0.197513 0.062745
0.701595 0.198611 0.062745
0.734127 0.199496 0.062745
0.764858 0.200473 0.062745
0.794675 0.201663 0.062745
0.824002 0.203067 0.063416
0.852811 0.205051 0.067384
0.881071 0.207431 0.072572
0.908934 0.210575 0.079225
0.921569 0.218326 0.087587
0.921569 0.229007 0.098482
0.921569 0.240635 0.111757
0.921569 0.252873 0.127871
0.921569 0.264591 0.147005
0.921569 0.275975 0.167025
0.921569 0.287388 0.188174
0.062745 0.178653 0.095277
0.062745 0.182437 0.096407
0.062745 0.180728 0.062745
0.102998 0.175845 0.062745
0.158602 0.168826 0.062745
0.198734 0.162478 0.062745
0.235355 0.184329 0.062745
0.262547 0.200259 0.066773
0.311437 0.209049 0.064027
0.361120 0.215061 0.062745
0.408972 0.219547 0.062745
0.455207 0.222995 0.062745
0.499580 0.225620 0.062745
0.542351 0.227573 0.062745
0.583581 0.229038 0.062745
0.622522 0.230045 0.062745
0.659571 0.230320 0.062745
0.694484 0.230869 0.062745
0.727596 0.230838 0.062745
0.758816 0.230838 0.062745
0.789181 0.231144 0.062745
0.818967 0.231876 0.064851
0.843778 0.231601 0.068513
0.872679 0.233005 0.073823
0.899840 0.238834 0.080812
0.921569 0.247196 0.089815
0.921569 0.256291 0.101137
0.921569 0.266392 0.114687
0.921569 0.276097 0.131563
0.921569 0.285618 0.150546
0.921569 0.295171 0.170352
0.921569 0.304967 0.191379
0.062745 0.220462 0.108827
0.062745 0.221988 0.079896
0.062745 0.217502 0.062745
0.099367 0.213046 0.062745
0.160342 0.210269 0.062745
0.197299 0.191623 0.062745
0.240726 0.196780 0.062745
0.275944 0.217136 0.062745
0.302525 0.232486 0.062745
0.343114 0.243961 0.064118
0.391760 0.250095 0.062745
0.438758 0.254582 0.062745
0.484047 0.257908 0.062745
0.528008 0.260166 0.062745
0.570062 0.261814 0.062745
0.609979 0.262730 0.062745
0.647883 0.262974 0.062745
0.683711 0.262852 0.062745
0.717464 0.262455 0.062745
0.749325 0.261814 0.062745
0.780240 0.261357 0.063203
0.810391 0.261295 0.066896
0.839933 0.261448 0.071534
0.866850 0.267124 0.077790
0.893645 0.272923 0.085603
0.920226 0.279850 0.095369
0.921569 0.287480 0.107301
0.921569 0.295293 0.121798
0.921569 0.302831 0.139315
0.921569 0.310430 0.157992
0.921569 0.318181 0.177676
0.921569 0.326665 0.198672
0.062745 0.263066 0.121920
0.062745 0.262150 0.062745
0.062745 0.255985 0.062745
0.094545 0.251804 0.062745
0.157809 0.249332 0.062745
0.208164 0.246586 0.062745
0.242832 0.220981 0.062745
0.283391 0.231540 0.062745
0.317388 0.250767 0.062745
0.343755 0.266026 0.062745
0.376287 0.279606 0.065614
0.424201 0.285710 0.062745
0.470558 0.290013 0.062745
0.515312 0.293034 0.062745
0.558251 0.294957 0.062745
0.599115 0.296056 0.062745
0.637812 0.296269 0.062745
0.674281 0.295933 0.062745
0.708766 0.295048 0.062745
0.741421 0.293980 0.063386
0.773068 0.293187 0.066529
0.802304 0.295354 0.070802
0.830564 0.298802 0.076356
0.858335 0.302831 0.083375
0.885557 0.308171 0.091890
0.912840 0.313664 0.102419
0.921569 0.319219 0.115053
0.921569 0.324895 0.130709
0.921569 0.330632 0.148257
0.921569 0.336553 0.166720
0.921569 0.342931 0.186313
0.921569 0.350072 0.207218
0.062745 0.302800 0.075990
0.062745 0.299657 0.062745
0.062745 0.293645 0.062745
0.088502 0.289921 0.062745
0.153628 0.287724 0.062745
0.206302 0.285222 0.062745
0.251865 0.277470 0.062745
0.289921 0.251804 0.062745
0.324987 0.265232 0.062745
0.357733 0.283268 0.062745
0.384100 0.298100 0.062745
0.409125 0.313512 0.068269
0.455207 0.319738 0.066255
0.500755 0.323827 0.064210
0.544610 0.326543 0.062776
0.586267 0.328038 0.062745
0.625910 0.328466 0.062745
0.663233 0.328099 0.063630
0.698146 0.327520 0.065370
0.729671 0.328801 0.068391
0.760403 0.330358 0.072175
0.790249 0.332708 0.077058
0.819333 0.335546 0.083162
0.847807 0.339147 0.090822
0.876310 0.342596 0.100069
0.904753 0.346380 0.111177
0.921569 0.350317 0.124910
0.921569 0.354314 0.140963
0.921569 0.358618 0.158145
0.921569 0.363256 0.176364
0.921569 0.368658 0.195895
0.921569 0.374517 0.216800
0.062745 0.341314 0.062745
0.062745 0.336126 0.062745
0.062745 0.330755 0.062745
0.080690 0.327367 0.062745
0.148104 0.325170 0.062745
0.202640 0.323003 0.062745
0.253880 0.320012 0.062745
0.290806 0.302342 0.062745
0.334447 0.282689 0.062745
0.365545 0.297887 0.062745
0.397284 0.314794 0.062745
0.423499 0.329046 0.062745
0.447761 0.343572 0.065431
0.485359 0.352575 0.072389
0.529870 0.356237 0.070405
0.571527 0.358862 0.069551
0.609979 0.361059 0.069795
0.646418 0.362524 0.070954
0.680720 0.363592 0.073060
0.713375 0.364965 0.075959
0.745144 0.366735 0.080201
0.776120 0.368872 0.085573
0.806668 0.370977 0.092287
0.836851 0.373175 0.100435
0.866758 0.375433 0.110292
0.896330 0.378027 0.122286
0.921569 0.380713 0.136965
0.921569 0.383581 0.152621
0.921569 0.386908 0.169314
0.921569 0.390570 0.187350
0.921569 0.394873 0.206638
0.921569 0.399878 0.227481
0.062745 0.376989 0.062745
0.062745 0.371893 0.062745
0.062745 0.366857 0.062745
0.072694 0.363684 0.062745
0.141054 0.361730 0.062745
0.198550 0.359564 0.062745
0.250492 0.356878 0.062745
0.299931 0.353643 0.062745
0.328923 0.325933 0.062745
0.374731 0.314549 0.062745
0.404944 0.328832 0.062745
0.435126 0.344518 0.062745
0.460761 0.358343 0.062745
0.483894 0.371740 0.062745
0.508110 0.385565 0.082399
0.549859 0.389990 0.081056
0.589136 0.393286 0.080964
0.626307 0.395727 0.081819
0.661585 0.397498 0.083589
0.695857 0.399023 0.086671
0.729274 0.400549 0.091005
0.761959 0.402045 0.096437
0.794003 0.403540 0.103334
0.825467 0.405035 0.112032
0.856626 0.406531 0.122560
0.887327 0.408301 0.135470
0.917632 0.410346 0.149783
0.921569 0.412482 0.165103
0.921569 0.414984 0.181582
0.921569 0.417853 0.199374
0.921569 0.421485 0.218540
0.921569 0.425818 0.239322
0.062745 0.411505 0.062745
0.062745 0.406867 0.062745
0.062745 0.402472 0.062745
0.067231 0.399725 0.062745
0.135134 0.398016 0.062745
0.193759 0.396063 0.062745
0.246647 0.393744 0.062745
0.296178 0.391058 0.062745
0.343450 0.387243 0.062745
0.366125 0.353887 0.062745
0.412665 0.345495 0.062745
0.441321 0.358373 0.062745
0.466621 0.370031 0.062745
0.491829 0.383246 0.062745
0.514275 0.395697 0.062745
0.536187 0.409064 0.075868
0.564172 0.419471 0.094301
0.602625 0.422858 0.094667
0.639460 0.425330 0.095888
0.675380 0.427405 0.098756
0.710384 0.429236 0.102815
0.744625 0.430762 0.108217
0.778134 0.432288 0.115511
0.811154 0.433570 0.124239
0.843565 0.435004 0.135531
0.875547 0.436378 0.148043
0.907042 0.437995 0.161837
0.921569 0.439796 0.176852
0.921569 0.441871 0.193301
0.921569 0.444465 0.210910
0.921569 0.447547 0.230228
0.921569 0.451514 0.251102
0.062745 0.442817 0.062745
0.062745 0.438941 0.062745
0.062745 0.435004 0.062745
0.072145 0.433265 0.062745
0.137789 0.431739 0.062745
0.193576 0.430335 0.062745
0.244907 0.428290 0.062745
0.293309 0.425940 0.062745
0.340154 0.423163 0.062745
0.379492 0.413336 0.062745
0.401160 0.380041 0.062745
0.447913 0.373510 0.062745
0.474830 0.384985 0.062745
0.501762 0.397711 0.062745
0.526055 0.409827 0.062745
0.547601 0.421271 0.062745
0.568597 0.433448 0.069581
0.589014 0.446265 0.101595
0.622065 0.452399 0.112215
0.659358 0.455177 0.114595
0.695674 0.457465 0.118563
0.731197 0.459358 0.124208
0.765988 0.460914 0.131716
0.800015 0.462318 0.141176
0.833524 0.463569 0.151644
0.866484 0.464881 0.163638
0.898833 0.466285 0.176913
0.921569 0.467872 0.191653
0.921569 0.469642 0.207767
0.921569 0.471870 0.225437
0.921569 0.474617 0.244541
0.921569 0.478096 0.265537
0.062745 0.475471 0.062745
0.062745 0.471809 0.062745
0.062745 0.468513 0.062745
0.077974 0.467231 0.062745
0.140688 0.466011 0.062745
0.194614 0.464607 0.062745
0.244236 0.462806 0.062745
0.291814 0.460670 0.062745
0.337804 0.458045 0.062745
0.382879 0.455024 0.062745
0.415717 0.439185 0.062745
0.439490 0.408301 0.062745
0.484016 0.401526 0.062745
0.509789 0.411933 0.062745
0.535363 0.423407 0.062745
0.558984 0.434760 0.062745
0.579675 0.445289 0.062745
0.599939 0.456641 0.065095
0.620325 0.469062 0.100191
0.643671 0.480720 0.134066
0.681178 0.483742 0.137819
0.717830 0.486183 0.143099
0.753658 0.488106 0.150088
0.788785 0.489723 0.158450
0.823239 0.491249 0.168521
0.857115 0.492500 0.180026
0.890318 0.493904 0.192935
0.921569 0.495338 0.207401
0.921569 0.496986 0.223331
0.921569 0.499001 0.240787
0.921569 0.501488 0.260014
0.921569 0.504662 0.280888
0.062745 0.506432 0.062745
0.062745 0.503166 0.062745
0.062745 0.500572 0.062745
0.079652 0.499367 0.062745
0.140841 0.498207 0.062745
0.193393 0.496895 0.062745
0.242100 0.495277 0.062745
0.289158 0.493324 0.062745
0.334783 0.490913 0.062745
0.379553 0.488045 0.062745
0.423621 0.484810 0.062745
0.450477 0.463172 0.062745
0.476722 0.434638 0.062745
0.518791 0.427710 0.062745
0.543542 0.437171 0.062745
0.567834 0.447578 0.062745
0.590753 0.458228 0.062745
0.611017 0.468238 0.062745
0.631373 0.479408 0.062745
0.651850 0.491585 0.100984
0.672480 0.504692 0.144900
0.704311 0.511284 0.162295
0.741238 0.513787 0.168612
0.777310 0.515892 0.176455
0.812711 0.517693 0.186007
0.847471 0.519249 0.197116
0.881498 0.520684 0.209689
0.914794 0.522179 0.223819
0.921569 0.523827 0.239628
0.921569 0.525658 0.256992
0.921569 0.528008 0.276036
0.921569 0.530999 0.297002
0.062745 0.536126 0.062745
0.062745 0.533104 0.062745
0.062745 0.530816 0.062745
0.077882 0.529686 0.062745
0.138430 0.528466 0.062745
0.190372 0.527276 0.062745
0.239048 0.525689 0.062745
0.285496 0.523705 0.062745
0.330938 0.521416 0.062745
0.375341 0.518791 0.062745
0.419287 0.515770 0.062745
0.462898 0.512444 0.062745
0.483864 0.485512 0.062745
0.512779 0.459174 0.062745
0.552636 0.452430 0.062745
0.576501 0.461189 0.062745
0.599939 0.470802 0.062745
0.622339 0.480934 0.062745
0.642695 0.490883 0.062745
0.663142 0.501884 0.062745
0.683650 0.513848 0.104646
0.704250 0.526726 0.152407
0.728573 0.538048 0.187411
0.765591 0.540734 0.194919
0.801907 0.542992 0.203983
0.837461 0.544884 0.214786
0.872251 0.546654 0.227085
0.906371 0.548272 0.241062
0.921569 0.549981 0.256657
0.921569 0.551965 0.274052
0.921569 0.554345 0.293339
0.921569 0.557305 0.314519
0.062745 0.564874 0.062745
0.062745 0.562127 0.062745
0.062745 0.560235 0.062745
0.075105 0.559136 0.062745
0.134066 0.558129 0.062745
0.186557 0.557031 0.062745
0.235233 0.555535 0.062745
0.281804 0.553765 0.062745
0.327062 0.551690 0.062745
0.371618 0.549218 0.062745
0.415564 0.546532 0.062745
0.459113 0.543481 0.062745
0.498787 0.536706 0.062745
0.517937 0.507774 0.062745
0.549248 0.483467 0.062745
0.586969 0.476905 0.062745
0.610010 0.484932 0.062745
0.632441 0.493812 0.062745
0.654261 0.503349 0.062745
0.674739 0.513176 0.062745
0.695216 0.524071 0.064118
0.715724 0.535943 0.111574
0.736416 0.548699 0.163180
0.757259 0.562463 0.207736
0.791287 0.567437 0.222904
0.827665 0.569848 0.233341
0.863218 0.571954 0.245426
0.898070 0.573877 0.259373
0.921569 0.575860 0.274968
0.921569 0.577966 0.292454
0.921569 0.580377 0.311711
0.921569 0.583337 0.333104
0.062745 0.593042 0.062745
0.062745 0.590539 0.062745
0.062745 0.586999 0.062745
0.068452 0.586267 0.062745
0.126070 0.585321 0.062745
0.180270 0.584253 0.062745
0.229587 0.582910 0.062745
0.276402 0.581292 0.062745
0.321538 0.579461 0.062745
0.366278 0.577234 0.062745
0.410040 0.574792 0.062745
0.453620 0.572076 0.062745
0.497139 0.568994 0.062745
0.531518 0.557214 0.062745
0.550744 0.528038 0.062745
0.584497 0.505730 0.062745
0.620081 0.499763 0.062745
0.642359 0.507225 0.062745
0.664118 0.515496 0.062745
0.685115 0.524529 0.062745
0.705745 0.534386 0.062745
0.726406 0.545281 0.068482
0.747158 0.557183 0.121920
0.768124 0.570123 0.176669
0.789151 0.584100 0.223178
0.817319 0.593561 0.252140
0.853819 0.596246 0.264286
0.889433 0.598718 0.278202
0.921569 0.600977 0.293919
0.921569 0.603357 0.311498
0.921569 0.605982 0.330968
0.921569 0.609064 0.352667
0.062745 0.620600 0.062745
0.062745 0.618280 0.062745
0.062745 0.616205 0.062745
0.062745 0.615381 0.062745
0.111757 0.614557 0.062745
0.171511 0.613825 0.062745
0.223758 0.612757 0.062745
0.271519 0.611292 0.062745
0.317357 0.609552 0.062745
0.362341 0.607477 0.062745
0.406714 0.605219 0.062745
0.450721 0.602625 0.062745
0.494636 0.599786 0.062745
0.538201 0.596704 0.062745
0.567407 0.579919 0.062745
0.586511 0.550317 0.062745
0.622705 0.529412 0.062745
0.655940 0.523919 0.062745
0.677424 0.530755 0.062745
0.698207 0.538293 0.062745
0.718288 0.546624 0.062745
0.738735 0.556359 0.062745
0.759548 0.567315 0.077272
0.780453 0.579278 0.138369
0.801389 0.592340 0.194400
0.822385 0.606439 0.242741
0.845121 0.620203 0.284459
0.881437 0.623133 0.298405
0.916808 0.625788 0.314214
0.921569 0.628504 0.331914
0.921569 0.631342 0.351629
0.921569 0.634638 0.373663
0.062745 0.649653 0.062745
0.062745 0.647456 0.062745
0.062745 0.645289 0.062745
0.062745 0.644343 0.062745
0.094118 0.643610 0.062745
0.157931 0.642878 0.062745
0.214511 0.641993 0.062745
0.265415 0.640864 0.062745
0.312413 0.639246 0.062745
0.358068 0.637385 0.062745
0.403021 0.635248 0.062745
0.447547 0.632898 0.062745
0.491737 0.630274 0.062745
0.536004 0.627344 0.062745
0.580102 0.624170 0.062745
0.603937 0.602380 0.062745
0.623163 0.572229 0.062745
0.661372 0.552575 0.062745
0.692256 0.547662 0.062745
0.712886 0.553857 0.062745
0.732784 0.560845 0.062745
0.751888 0.568566 0.062745
0.772183 0.578119 0.062745
0.793088 0.589166 0.091035
0.814054 0.601312 0.158816
0.834989 0.614588 0.215702
0.855863 0.628962 0.266117
0.876585 0.644465 0.313603
0.909514 0.650050 0.335454
0.921569 0.653101 0.353368
0.921569 0.656275 0.373419
0.921569 0.659754 0.395819
0.062745 0.678676 0.062745
0.062745 0.676692 0.062745
0.062745 0.674678 0.062745
0.062745 0.673487 0.062745
0.077516 0.672786 0.062745
0.143496 0.672053 0.062745
0.204471 0.671229 0.062745
0.258366 0.670222 0.062745
0.306554 0.668757 0.062745
0.353124 0.667018 0.062745
0.398779 0.665064 0.062745
0.444068 0.662867 0.062745
0.488777 0.660395 0.062745
0.533410 0.657649 0.062745
0.578180 0.654597 0.062745
0.622919 0.651331 0.062745
0.641260 0.624262 0.062745
0.660304 0.593591 0.062745
0.700404 0.574853 0.062745
0.728695 0.570733 0.062745
0.748318 0.576287 0.062745
0.767147 0.582696 0.062745
0.785336 0.589899 0.062745
0.805112 0.599207 0.062745
0.826017 0.610376 0.110567
0.846952 0.622705 0.182040
0.867765 0.636225 0.239902
0.888365 0.650965 0.292302
0.908537 0.666865 0.342077
0.921569 0.676326 0.374487
0.921569 0.679835 0.394781
0.921569 0.683650 0.417578
0.062745 0.706874 0.062745
0.062745 0.705074 0.062745
0.062745 0.703334 0.062745
0.062745 0.702022 0.062745
0.062745 0.701442 0.062745
0.126772 0.700832 0.062745
0.193637 0.700069 0.062745
0.249119 0.699001 0.062745
0.298955 0.697627 0.062745
0.346807 0.695979 0.062745
0.393347 0.694118 0.062745
0.439277 0.692042 0.062745
0.484749 0.689723 0.062745
0.530144 0.687129 0.062745
0.575341 0.684291 0.062745
0.620661 0.681178 0.062745
0.660548 0.673182 0.062745
0.678889 0.645747 0.062745
0.698878 0.615076 0.062745
0.740078 0.596551 0.062745
0.765866 0.593652 0.062745
0.784817 0.598810 0.062745
0.802976 0.604852 0.062745
0.820401 0.611688 0.062745
0.839475 0.620783 0.062745
0.860441 0.632227 0.139620
0.881254 0.644892 0.210422
0.901762 0.658839 0.269474
0.921569 0.674037 0.323980
0.921569 0.690486 0.376501
0.921569 0.703670 0.418647
0.921569 0.707851 0.441993
0.062745 0.736080 0.062745
0.062745 0.734432 0.062745
0.062745 0.732845 0.062745
0.062745 0.731319 0.062745
0.062745 0.730770 0.062745
0.110536 0.730159 0.062745
0.179538 0.729274 0.062745
0.237156 0.728176 0.062745
0.289799 0.726833 0.062745
0.339269 0.725338 0.062745
0.387304 0.723568 0.062745
0.434241 0.721614 0.062745
0.480598 0.719417 0.062745
0.526848 0.716945 0.062745
0.572717 0.714290 0.062745
0.618738 0.711269 0.062745
0.665034 0.708003 0.062745
0.699702 0.695308 0.062745
0.718166 0.667201 0.062745
0.740932 0.637842 0.062745
0.780972 0.618067 0.062745
0.804318 0.616541 0.062745
0.822354 0.621332 0.062745
0.839597 0.627008 0.062745
0.856443 0.633753 0.062745
0.874510 0.642512 0.086183
0.895323 0.654292 0.173922
0.915740 0.667353 0.243198
0.921569 0.681758 0.303746
0.921569 0.697536 0.360723
0.921569 0.714717 0.416175
0.921569 0.731533 0.467506
0.062745 0.764706 0.062745
0.062745 0.763149 0.062745
0.062745 0.761654 0.062745
0.062745 0.760189 0.062745
0.062745 0.759274 0.062745
0.081575 0.758602 0.062745
0.157473 0.757839 0.062745
0.222019 0.756893 0.062745
0.277806 0.755734 0.062745
0.329778 0.754391 0.062745
0.379522 0.752865 0.062745
0.427924 0.751064 0.062745
0.475746 0.749050 0.062745
0.522881 0.746822 0.062745
0.569909 0.744350 0.062745
0.616785 0.741604 0.062745
0.663935 0.738552 0.062745
0.711269 0.735164 0.062745
0.740780 0.717800 0.062745
0.759365 0.689082 0.062745
0.784634 0.660731 0.062745
0.823606 0.639582 0.062745
0.844358 0.639673 0.062745
0.861570 0.644190 0.062745
0.877836 0.649622 0.062745
0.893217 0.655879 0.062745
0.909850 0.664240 0.123995
0.921569 0.676448 0.211704
0.921569 0.690059 0.280735
0.921569 0.705074 0.343267
0.921569 0.721614 0.403326
0.921569 0.739498 0.461707
0.062745 0.794400 0.062745
0.062745 0.792966 0.062745
0.062745 0.791531 0.062745
0.062745 0.790158 0.062745
0.062745 0.788815 0.062745
0.062745 0.788022 0.062745
0.125643 0.787289 0.062745
0.201724 0.786343 0.062745
0.263096 0.785183 0.062745
0.318212 0.783902 0.062745
0.370245 0.782376 0.062745
0.420508 0.780667 0.062745
0.469612 0.778744 0.062745
0.517967 0.776608 0.062745
0.566094 0.774258 0.062745
0.613947 0.771633 0.062745
0.662074 0.768704 0.062745
0.710323 0.765499 0.062745
0.758846 0.761898 0.062745
0.782864 0.739834 0.062745
0.801633 0.710567 0.062745
0.829343 0.682979 0.062745
0.867124 0.660487 0.062745
0.885069 0.662531 0.062745
0.901091 0.666712 0.062745
0.916075 0.671870 0.062745
0.921569 0.677852 0.073030
0.921569 0.685725 0.170962
0.921569 0.698421 0.253056
0.921569 0.712673 0.322911
0.921569 0.728359 0.387976
0.921569 0.745693 0.450965
0.062745 0.823911 0.062745
0.062745 0.822629 0.062745
0.062745 0.821378 0.062745
0.062745 0.820096 0.062745
0.062745 0.818906 0.062745
0.062745 0.817533 0.062745
0.084779 0.816770 0.062745
0.174289 0.815915 0.062745
0.243961 0.814847 0.062745
0.303746 0.813596 0.062745
0.358862 0.812192 0.062745
0.411231 0.810544 0.062745
0.462165 0.808713 0.062745
0.512139 0.806668 0.062745
0.561639 0.804410 0.062745
0.610742 0.801907 0.062745
0.659876 0.799130 0.062745
0.709224 0.796048 0.062745
0.758785 0.792599 0.062745
0.808804 0.788815 0.062745
0.827024 0.761990 0.062745
0.845975 0.732021 0.062745
0.875669 0.705013 0.062745
0.911009 0.682490 0.062745
0.921569 0.685389 0.062745
0.921569 0.689326 0.062745
0.921569 0.694240 0.062745
0.921569 0.700099 0.129427
0.921569 0.707424 0.219944
0.921569 0.720699 0.299809
0.921569 0.735592 0.371374
0.921569 0.752346 0.439948
0.062745 0.853727 0.062745
0.062745 0.852598 0.062745
0.062745 0.851438 0.062745
0.062745 0.850278 0.062745
0.062745 0.849088 0.062745
0.062745 0.847807 0.062745
0.062745 0.846281 0.062745
0.133364 0.845304 0.062745
0.218448 0.844144 0.062745
0.284703 0.842832 0.062745
0.343938 0.841337 0.062745
0.399207 0.839689 0.062745
0.452308 0.837797 0.062745
0.503838 0.835782 0.062745
0.554742 0.833555 0.062745
0.605188 0.831113 0.062745
0.655573 0.828458 0.062745
0.706050 0.825467 0.062745
0.756588 0.822202 0.062745
0.807614 0.818540 0.062745
0.852873 0.810513 0.062745
0.871275 0.783078 0.062745
0.890501 0.752438 0.062745
0.921569 0.725673 0.062745
0.921569 0.704707 0.062745
0.921569 0.707362 0.062745
0.921569 0.711086 0.062745
0.921569 0.715877 0.082002
0.921569 0.721645 0.194278
0.921569 0.728359 0.270909
0.921569 0.742458 0.351171
0.921569 0.758602 0.426520
0.062745 0.882719 0.062745
0.062745 0.881682 0.062745
0.062745 0.880644 0.062745
0.062745 0.879637 0.062745
0.062745 0.878630 0.062745
0.062745 0.877470 0.062745
0.062745 0.876066 0.062745
0.076051 0.874510 0.062745
0.182864 0.873533 0.062745
0.260563 0.872343 0.062745
0.325628 0.871031 0.062745
0.384894 0.869505 0.062745
0.440864 0.867796 0.062745
0.494667 0.865934 0.062745
0.547509 0.863828 0.062745
0.599634 0.861540 0.062745
0.651575 0.858946 0.062745
0.703395 0.856077 0.062745
0.755337 0.852903 0.062745
0.807492 0.849424 0.062745
0.860288 0.845548 0.062745
0.900572 0.833219 0.062745
0.919219 0.805081 0.062745
