NexEditor_IOS/NexEditorSDKTests/NexEditorSDKTests/bundles/T&O - RMN Z2.cube
# Created by: Riyaz MN
LUT_3D_SIZE 8
DOMAIN_MIN 0.000000 0.000000 0.000000
DOMAIN_MAX 0.903226 0.903226 0.903226
0.065797 0.065980 0.065919
0.072511 0.066255 0.066682
0.276738 0.062745 0.065949
0.496437 0.062745 0.062745
0.693446 0.062745 0.062745
0.854582 0.062745 0.062745
0.921569 0.062745 0.062745
0.921569 0.062745 0.062745
0.062745 0.097505 0.074067
0.112306 0.093690 0.064637
0.261143 0.136446 0.062745
0.462440 0.165377 0.062745
0.665187 0.182223 0.062745
0.836149 0.184146 0.062745
0.921569 0.179507 0.062745
0.921569 0.211093 0.062745
0.062745 0.235142 0.070619
0.121828 0.222782 0.062745
0.264469 0.213169 0.062745
0.409979 0.281407 0.062745
0.621729 0.313542 0.062745
0.800534 0.324926 0.062745
0.921569 0.332616 0.062745
0.921569 0.335912 0.062745
0.062745 0.388952 0.062745
0.118502 0.378759 0.062745
0.296971 0.372259 0.062745
0.436286 0.353399 0.062745
0.560632 0.417365 0.062745
0.731777 0.458350 0.062745
0.895659 0.464668 0.062745
0.921569 0.458869 0.075196
0.062745 0.545983 0.062745
0.123049 0.539208 0.062745
0.313481 0.533593 0.062745
0.481300 0.520043 0.062745
0.615595 0.485756 0.062745
0.734798 0.535454 0.062745
0.854643 0.578241 0.076539
0.921569 0.575128 0.161257
0.062745 0.701106 0.062745
0.075471 0.694697 0.062745
0.319371 0.690913 0.062745
0.510155 0.682673 0.062745
0.670649 0.645808 0.062745
0.795590 0.600061 0.062745
0.888487 0.628992 0.062745
0.921569 0.675532 0.255436
0.062745 0.833524 0.062745
0.062745 0.827543 0.062745
0.284337 0.823575 0.062745
0.502495 0.816373 0.062745
0.707637 0.804990 0.062745
0.855833 0.742794 0.062745
0.921569 0.688533 0.062745
0.921569 0.706416 0.106966
0.062745 0.921569 0.062745
0.062745 0.921569 0.062745
0.123049 0.921569 0.062745
0.441566 0.921569 0.062745
0.671504 0.912596 0.062745
0.893248 0.896452 0.062745
0.921569 0.808896 0.062745
0.921569 0.755398 0.062745
0.062745 0.104280 0.128542
0.062745 0.070161 0.125154
0.276188 0.062745 0.119020
0.496193 0.062745 0.067170
0.649195 0.099886 0.062745
0.813993 0.188418 0.062745
0.921569 0.202243 0.062745
0.921569 0.202762 0.062745
0.062745 0.114687 0.144076
0.094362 0.114473 0.114321
0.230594 0.136080 0.108644
0.414252 0.184665 0.091859
0.612207 0.241123 0.062745
0.791012 0.287846 0.062745
0.921569 0.292576 0.062745
0.921569 0.285679 0.062745
0.062745 0.240940 0.212222
0.069490 0.226871 0.100587
0.233524 0.211002 0.093629
0.364904 0.283177 0.104677
0.569787 0.337652 0.064057
0.759670 0.375372 0.062745
0.916838 0.380499 0.062745
0.921569 0.370428 0.062745
0.062745 0.389258 0.147372
0.062745 0.378210 0.068299
0.253788 0.371496 0.062745
0.412512 0.348974 0.062745
0.544854 0.418128 0.062745
0.712947 0.473396 0.062745
0.885283 0.484688 0.062745
0.921569 0.475288 0.082887
0.062745 0.545769 0.062745
0.062745 0.534386 0.062745
0.240604 0.527214 0.062745
0.451820 0.520562 0.062745
0.600916 0.483803 0.062745
0.731197 0.538140 0.062745
0.847776 0.587549 0.083497
0.921569 0.583520 0.169192
0.062745 0.704799 0.062745
0.062745 0.696101 0.062745
0.219944 0.688563 0.062745
0.470283 0.682002 0.062745
0.663294 0.656550 0.062745
0.794339 0.602411 0.062745
0.890257 0.631220 0.062745
0.921569 0.677089 0.251957
0.062745 0.839017 0.062745
0.062745 0.833127 0.062745
0.189761 0.826383 0.062745
0.473091 0.819699 0.062745
0.698817 0.809140 0.062745
0.856565 0.752773 0.062745
0.921569 0.690517 0.062745
0.921569 0.708125 0.103304
0.062745 0.921569 0.062745
0.062745 0.921569 0.062745
0.062745 0.921569 0.062745
0.409552 0.921569 0.062745
0.652583 0.914794 0.062745
0.880552 0.898741 0.062745
0.921569 0.815854 0.062745
0.921569 0.755978 0.062745
0.062745 0.266697 0.330785
0.062745 0.246677 0.320745
0.197299 0.062745 0.305547
0.422644 0.062745 0.297307
0.624079 0.062745 0.247227
0.799863 0.062745 0.195529
0.921569 0.171939 0.165194
0.921569 0.232242 0.098634
0.062745 0.274846 0.325170
0.062745 0.246342 0.281682
0.180179 0.145815 0.268681
0.383093 0.139712 0.260929
0.593744 0.143191 0.225742
0.767422 0.231846 0.213870
0.920806 0.280583 0.177249
0.921569 0.305730 0.103517
0.062745 0.235904 0.299443
0.062745 0.227237 0.273381
0.151461 0.256992 0.261295
0.350134 0.274815 0.250492
0.543847 0.312657 0.242863
0.735653 0.349767 0.222446
0.901274 0.375036 0.185031
0.921569 0.385229 0.113130
0.062745 0.372595 0.394842
0.062745 0.400763 0.357397
0.084474 0.384894 0.238590
0.357549 0.355749 0.227451
0.487404 0.423194 0.259373
0.691371 0.464912 0.239658
0.870970 0.484474 0.204105
0.921569 0.485756 0.138705
0.062745 0.554223 0.395026
0.062745 0.546136 0.296788
0.062745 0.531762 0.213046
0.380774 0.519280 0.185977
0.555291 0.482307 0.180087
0.692714 0.543603 0.216983
0.835630 0.591272 0.241398
0.921569 0.590814 0.185245
0.062745 0.711360 0.281712
0.062745 0.706264 0.161654
0.062745 0.692561 0.142275
0.388464 0.681239 0.094240
0.632532 0.670588 0.062745
0.768399 0.604913 0.062745
0.877684 0.638331 0.101808
0.921569 0.678218 0.246952
0.062745 0.846159 0.062745
0.062745 0.840177 0.062745
0.062745 0.831174 0.062745
0.382483 0.821164 0.062745
0.647059 0.810636 0.062745
0.846433 0.766262 0.062745
0.921569 0.692348 0.062745
0.921569 0.709285 0.095674
0.062745 0.921569 0.062745
0.062745 0.921569 0.062745
0.062745 0.921569 0.062745
0.346044 0.921569 0.062745
0.619623 0.918303 0.062745
0.859190 0.902007 0.062745
0.921569 0.825956 0.062745
0.921569 0.756466 0.062745
0.062745 0.437964 0.533043
0.062745 0.432532 0.526452
0.062745 0.261631 0.515129
0.337499 0.062745 0.486336
0.542779 0.062745 0.456001
0.755245 0.062745 0.428168
0.921569 0.062745 0.367071
0.921569 0.201755 0.357855
0.062745 0.445289 0.515892
0.062745 0.425422 0.485695
0.062745 0.320928 0.470314
0.303319 0.192508 0.453590
0.523400 0.178134 0.438025
0.738949 0.161471 0.411658
0.915099 0.169924 0.360357
0.921569 0.299199 0.366094
0.062745 0.418402 0.496803
0.062745 0.403418 0.471229
0.062745 0.394476 0.443305
0.276158 0.289189 0.434577
0.508507 0.290501 0.420996
0.721889 0.292241 0.393591
0.885252 0.354681 0.391028
0.921569 0.381689 0.364599
0.062745 0.386145 0.480659
0.062745 0.380407 0.463416
0.062745 0.382238 0.443671
0.245975 0.418708 0.426581
0.475349 0.430671 0.413275
0.674800 0.459632 0.410498
0.855131 0.483680 0.401556
0.921569 0.491951 0.376776
0.062745 0.453376 0.575219
0.062745 0.500206 0.562005
0.062745 0.562127 0.543938
0.187381 0.546441 0.403265
0.490425 0.507652 0.388525
0.631983 0.569574 0.423285
0.818784 0.598871 0.420996
0.921569 0.602197 0.399054
0.062745 0.730770 0.631891
0.062745 0.722164 0.584985
0.062745 0.709773 0.508812
0.109804 0.693355 0.376745
0.538262 0.676722 0.345129
0.720424 0.621912 0.339849
0.838804 0.663783 0.386511
0.921569 0.703517 0.432868
0.062745 0.846311 0.569635
0.062745 0.845487 0.500420
0.062745 0.844816 0.363470
0.062745 0.828641 0.315343
0.545892 0.814633 0.262516
0.812772 0.794156 0.167330
0.921569 0.706691 0.177218
0.921569 0.720699 0.252537
0.062745 0.921569 0.351202
0.062745 0.921569 0.187778
0.062745 0.921569 0.108919
0.062745 0.921569 0.062745
0.516350 0.921569 0.062745
0.808652 0.908446 0.062745
0.921569 0.844755 0.062745
0.921569 0.757473 0.062745
0.062745 0.577630 0.693324
0.062745 0.575036 0.690181
0.062745 0.496590 0.681636
0.062745 0.257328 0.668940
0.453651 0.155215 0.642695
0.674403 0.120607 0.612299
0.872465 0.125185 0.586481
0.921569 0.196536 0.542077
0.062745 0.596033 0.679347
0.062745 0.584680 0.661707
0.062745 0.524102 0.648768
0.062745 0.346075 0.643671
0.434333 0.251682 0.625666
0.662531 0.235203 0.601953
0.862791 0.246921 0.579553
0.921569 0.293706 0.543572
0.062745 0.575341 0.664393
0.062745 0.565759 0.648096
0.062745 0.556695 0.627680
0.062745 0.440253 0.620203
0.413519 0.340581 0.608911
0.651850 0.336004 0.592065
0.852415 0.352087 0.572442
0.921569 0.387488 0.546563
0.062745 0.553918 0.654719
0.062745 0.547601 0.641199
0.062745 0.541680 0.622827
0.062745 0.540795 0.595117
0.388006 0.447913 0.590875
0.642603 0.452705 0.580316
0.842588 0.468269 0.562158
0.921569 0.523339 0.571313
0.062745 0.530785 0.649531
0.062745 0.528893 0.639460
0.062745 0.529412 0.625696
0.062745 0.539422 0.605280
0.377111 0.576745 0.585473
0.627771 0.586389 0.572656
0.811795 0.608515 0.574304
0.921569 0.622309 0.570397
0.062745 0.574731 0.733394
0.062745 0.582422 0.732631
0.062745 0.614527 0.728054
0.062745 0.711513 0.706203
0.355840 0.707515 0.564752
0.656184 0.660639 0.545220
0.782528 0.708156 0.588190
0.921569 0.725124 0.595026
0.062745 0.853422 0.814054
0.062745 0.866606 0.799405
0.062745 0.859159 0.752834
0.062745 0.842832 0.671565
0.358587 0.827878 0.539574
0.709590 0.809354 0.498299
0.881407 0.742184 0.489784
0.921569 0.767880 0.546044
0.062745 0.921569 0.733333
0.062745 0.921569 0.707179
0.062745 0.921569 0.686519
0.062745 0.921569 0.538872
0.301244 0.921569 0.442664
0.697414 0.916472 0.342992
0.921569 0.881407 0.102602
0.921569 0.762692 0.062745
0.062745 0.676783 0.803494
0.062745 0.677516 0.801663
0.062745 0.648493 0.795468
0.062745 0.535515 0.790188
0.062745 0.262943 0.793973
0.572045 0.268498 0.776364
0.803037 0.243961 0.752956
0.921569 0.299260 0.721279
0.062745 0.706325 0.794644
0.062745 0.703243 0.788846
0.062745 0.671199 0.782834
0.062745 0.574609 0.779477
0.062745 0.353948 0.784146
0.564141 0.337469 0.769070
0.796109 0.321447 0.747250
0.921569 0.366796 0.720119
0.062745 0.695460 0.789700
0.062745 0.692805 0.782864
0.062745 0.689876 0.772641
0.062745 0.621759 0.767453
0.062745 0.449836 0.771176
0.554650 0.412665 0.759548
0.788235 0.403143 0.739986
0.921569 0.442939 0.717983
0.062745 0.682918 0.786069
0.062745 0.681117 0.779843
0.062745 0.679591 0.770626
0.062745 0.679408 0.753780
0.062745 0.573083 0.752468
0.543481 0.504448 0.746731
0.781003 0.504753 0.730556
0.921569 0.540887 0.715175
0.062745 0.668788 0.785946
0.062745 0.668421 0.780758
0.062745 0.669032 0.773068
0.062745 0.673091 0.759762
0.062745 0.685023 0.738247
0.539696 0.608057 0.735988
0.779171 0.617823 0.724239
0.921569 0.644190 0.716640
0.062745 0.653285 0.790372
0.062745 0.654719 0.786191
0.062745 0.658289 0.779965
0.062745 0.668452 0.768643
0.062745 0.689784 0.751217
0.559472 0.724453 0.729549
0.771939 0.731533 0.722408
0.921569 0.747555 0.727840
0.062745 0.673030 0.848295
0.062745 0.680232 0.847837
0.062745 0.693324 0.847166
0.062745 0.720821 0.845792
0.249851 0.829282 0.826291
0.571557 0.829831 0.716793
0.810361 0.789883 0.701808
0.911772 0.823178 0.741238
0.062745 0.872099 0.907286
0.062745 0.897398 0.903746
0.062745 0.921569 0.898497
0.062745 0.921569 0.862638
0.361913 0.921569 0.793942
0.594903 0.921569 0.689937
0.870115 0.904601 0.635157
0.921569 0.824613 0.597101
0.062745 0.760708 0.883421
0.062745 0.767910 0.881529
0.062745 0.754757 0.880247
0.062745 0.689418 0.880583
0.062745 0.569299 0.884398
0.062745 0.385962 0.888975
0.685298 0.417426 0.876463
0.909789 0.401434 0.863676
0.062745 0.788754 0.877928
0.062745 0.787900 0.877348
0.062745 0.773312 0.875181
0.062745 0.712459 0.876036
0.062745 0.606744 0.879026
0.062745 0.429633 0.884886
0.684138 0.462715 0.872374
0.906065 0.447089 0.859831
0.062745 0.783658 0.878721
0.062745 0.783566 0.876738
0.062745 0.784512 0.872557
0.062745 0.745632 0.870939
0.062745 0.657191 0.872435
0.062745 0.484504 0.880156
0.685084 0.519982 0.867735
0.904448 0.507042 0.856718
0.062745 0.776944 0.880064
0.062745 0.777676 0.877928
0.062745 0.779080 0.873960
0.062745 0.783566 0.866575
0.062745 0.721340 0.865446
0.062745 0.593072 0.870817
0.689570 0.596246 0.861418
0.899199 0.590234 0.849729
0.062745 0.767178 0.881407
0.062745 0.768276 0.879484
0.062745 0.770626 0.876555
0.062745 0.776638 0.871092
0.062745 0.789242 0.859586
0.196170 0.710109 0.858671
0.697383 0.674434 0.853941
0.897215 0.678004 0.842802
0.062745 0.754391 0.884977
0.062745 0.756069 0.883299
0.062745 0.759365 0.880644
0.062745 0.767453 0.875364
0.062745 0.783810 0.865965
0.062745 0.808774 0.849363
0.711177 0.754665 0.846433
0.900786 0.763882 0.838804
0.062745 0.737484 0.891234
0.062745 0.740383 0.889647
0.062745 0.745846 0.886992
0.062745 0.759152 0.881559
0.062745 0.784024 0.872068
0.461494 0.815427 0.858122
0.745602 0.839017 0.840909
0.902068 0.845853 0.841123
0.062745 0.725673 0.921569
0.062745 0.729946 0.921569
0.062745 0.739254 0.921569
0.062745 0.763821 0.921569
0.124514 0.811429 0.919860
0.582666 0.903899 0.906645
0.782773 0.913848 0.841550
0.921569 0.885435 0.831235
0.062745 0.816739 0.921569
0.062745 0.819821 0.921569
0.062745 0.822965 0.921569
0.062745 0.781949 0.921569
0.062745 0.733822 0.921569
0.062745 0.639521 0.921569
0.408362 0.573541 0.921569
0.793606 0.614008 0.921569
0.062745 0.838132 0.921569
0.062745 0.840116 0.921569
0.062745 0.837949 0.921569
0.062745 0.798367 0.921569
0.062745 0.750240 0.921569
0.062745 0.670619 0.921569
0.426123 0.603326 0.921569
0.797513 0.639429 0.921569
0.062745 0.842252 0.921569
0.062745 0.841947 0.921569
0.062745 0.842252 0.921569
0.062745 0.822171 0.921569
0.062745 0.773007 0.921569
0.062745 0.710964 0.921569
0.447852 0.639704 0.921569
0.803464 0.671199 0.921569
0.062745 0.839017 0.921569
0.062745 0.838712 0.921569
0.062745 0.838285 0.921569
0.062745 0.844907 0.921569
0.062745 0.811398 0.921569
0.062745 0.768917 0.921569
0.475868 0.688380 0.921569
0.813596 0.714687 0.921569
0.062745 0.832334 0.921569
0.062745 0.832853 0.921569
0.062745 0.833616 0.921569
0.062745 0.837278 0.921569
0.062745 0.852689 0.921569
0.062745 0.820829 0.921569
0.535546 0.756741 0.921569
0.828397 0.765133 0.921569
0.062745 0.821622 0.921569
0.062745 0.821988 0.921569
0.062745 0.822599 0.921569
0.062745 0.826383 0.921569
0.062745 0.839658 0.921569
0.062745 0.872282 0.921569
0.622339 0.836240 0.921569
0.847807 0.818173 0.921569
0.062745 0.804501 0.921569
0.062745 0.804654 0.921569
0.062745 0.804898 0.921569
0.062745 0.808286 0.921569
0.062745 0.824521 0.921569
0.062745 0.860685 0.921569
0.583520 0.900206 0.920378
0.868040 0.871763 0.917784
0.062745 0.778592 0.921569
0.062745 0.778225 0.921569
0.062745 0.777646 0.921569
0.062745 0.778103 0.921569
0.062745 0.801602 0.921569
0.235325 0.860533 0.921569
0.768093 0.901915 0.921111
0.903532 0.914153 0.914305
