NexEditor_IOS/NexEditorSDKTests/NexEditorSDKTests/bundles/T&O - RMN Z1.cube
# Created by: Riyaz MN
LUT_3D_SIZE 5
DOMAIN_MIN 0.000000 0.000000 0.000000
DOMAIN_MAX 0.903226 0.903226 0.903226
0.065797 0.065980 0.065919
0.292485 0.062745 0.069032
0.625452 0.062745 0.062745
0.840452 0.062745 0.062745
0.921569 0.112245 0.108156
0.062745 0.263066 0.121920
0.283391 0.231540 0.062745
0.558251 0.294957 0.062745
0.802304 0.295354 0.070802
0.921569 0.330632 0.148257
0.062745 0.506432 0.062745
0.289158 0.493324 0.062745
0.543542 0.437171 0.062745
0.704311 0.511284 0.162295
0.921569 0.523827 0.239628
0.062745 0.706874 0.062745
0.249119 0.699001 0.062745
0.575341 0.684291 0.062745
0.784817 0.598810 0.062745
0.921569 0.674037 0.323980
0.062745 0.912566 0.062745
0.062745 0.904906 0.062745
0.539666 0.894804 0.062745
0.915526 0.872435 0.062745
0.921569 0.756283 0.146853
0.062745 0.276463 0.343481
0.194858 0.062745 0.325170
0.574060 0.062745 0.252384
0.787472 0.210239 0.215091
0.921569 0.278416 0.128328
0.062745 0.255009 0.322789
0.174350 0.282231 0.285252
0.486458 0.322210 0.273198
0.744533 0.365545 0.245090
0.921569 0.384497 0.165042
0.062745 0.510094 0.390509
0.074739 0.492226 0.257145
0.485542 0.447303 0.236362
0.675105 0.526482 0.294041
0.921569 0.540246 0.248783
0.062745 0.712306 0.220127
0.062745 0.698207 0.197452
0.511650 0.683650 0.108370
0.768063 0.606226 0.062745
0.921569 0.676143 0.318700
0.062745 0.919860 0.062745
0.062745 0.912291 0.062745
0.489723 0.899474 0.062745
0.892790 0.876921 0.062745
0.921569 0.756863 0.124300
0.062745 0.509087 0.614862
0.062745 0.442847 0.605615
0.404608 0.198489 0.576623
0.717708 0.225254 0.521691
0.921569 0.291539 0.469856
0.062745 0.510277 0.591760
0.062745 0.498909 0.560723
0.370703 0.352819 0.545525
0.688533 0.367468 0.512474
0.921569 0.424414 0.495857
0.062745 0.474495 0.574975
0.062745 0.479164 0.554437
0.342535 0.520958 0.526757
0.642481 0.542077 0.516228
0.919066 0.567071 0.503136
0.062745 0.716732 0.698573
0.062745 0.726162 0.653315
0.306523 0.698238 0.496284
0.686397 0.645228 0.472450
0.886290 0.719417 0.533318
0.062745 0.920562 0.615900
0.062745 0.921569 0.500084
0.180972 0.910674 0.352056
0.803891 0.888945 0.085023
0.921569 0.759243 0.077272
0.062745 0.666529 0.791226
0.062745 0.663020 0.784817
0.062745 0.499031 0.778134
0.569024 0.377417 0.763699
0.886564 0.397223 0.733700
0.062745 0.689845 0.780819
0.062745 0.687465 0.768978
0.062745 0.577783 0.761563
0.560632 0.461036 0.752682
0.879393 0.474678 0.731838
0.062745 0.673121 0.776699
0.062745 0.674464 0.766812
0.062745 0.682948 0.743130
0.551476 0.575006 0.736721
0.882048 0.589410 0.726101
0.062745 0.655238 0.781277
0.062745 0.661982 0.774319
0.062745 0.682033 0.756619
0.565576 0.722286 0.725887
0.887297 0.742519 0.724788
0.062745 0.779599 0.901732
0.062745 0.834897 0.894926
0.062745 0.921569 0.871458
0.595605 0.905425 0.695735
0.921569 0.830076 0.644129
0.062745 0.809995 0.921569
0.062745 0.815579 0.921569
0.062745 0.757412 0.921569
0.062745 0.617243 0.921569
0.775357 0.593988 0.921569
0.062745 0.835904 0.921569
0.062745 0.835111 0.921569
0.062745 0.788571 0.921569
0.062745 0.669825 0.921569
0.781125 0.632685 0.921569
0.062745 0.830564 0.921569
0.062745 0.830869 0.921569
0.062745 0.843748 0.921569
0.170626 0.764981 0.921569
0.796231 0.701045 0.920226
0.062745 0.814725 0.921569
0.062745 0.815396 0.921569
0.062745 0.827176 0.921569
0.062745 0.872557 0.920439
0.826780 0.797116 0.916777
0.062745 0.779263 0.921569
0.062745 0.778531 0.921569
0.062745 0.790097 0.921569
0.343877 0.863188 0.921569
0.891752 0.909148 0.909422
