NexEditor_IOS/NexEditorSDKTests/NexEditorSDKTests/bundles/T&O - RMN Z1.cube
# Created by: Riyaz MN
LUT_3D_SIZE 8
DOMAIN_MIN 0.000000 0.000000 0.000000
DOMAIN_MAX 0.903226 0.903226 0.903226
0.065797 0.065980 0.065919
0.080140 0.066590 0.067445
0.349187 0.062745 0.067536
0.546014 0.062745 0.065003
0.694514 0.062745 0.062745
0.813138 0.062745 0.062745
0.921019 0.062745 0.071290
0.921569 0.112245 0.108156
0.062745 0.133639 0.083742
0.152865 0.124453 0.063996
0.326390 0.177340 0.062898
0.510063 0.190921 0.062745
0.667231 0.197513 0.062745
0.794675 0.201663 0.062745
0.908934 0.210575 0.079225
0.921569 0.252873 0.127871
0.062745 0.302800 0.075990
0.153628 0.287724 0.062745
0.324987 0.265232 0.062745
0.455207 0.319738 0.066255
0.625910 0.328466 0.062745
0.760403 0.330358 0.072175
0.876310 0.342596 0.100069
0.921569 0.358618 0.158145
0.062745 0.442817 0.062745
0.137789 0.431739 0.062745
0.340154 0.423163 0.062745
0.474830 0.384985 0.062745
0.568597 0.433448 0.069581
0.695674 0.457465 0.118563
0.833524 0.463569 0.151644
0.921569 0.469642 0.207767
0.062745 0.564874 0.062745
0.134066 0.558129 0.062745
0.327062 0.551690 0.062745
0.498787 0.536706 0.062745
0.610010 0.484932 0.062745
0.695216 0.524071 0.064118
0.791287 0.567437 0.222904
0.921569 0.575860 0.274968
0.062745 0.678676 0.062745
0.077516 0.672786 0.062745
0.306554 0.668757 0.062745
0.488777 0.660395 0.062745
0.641260 0.624262 0.062745
0.748318 0.576287 0.062745
0.826017 0.610376 0.110567
0.908537 0.666865 0.342077
0.062745 0.794400 0.062745
0.062745 0.788815 0.062745
0.263096 0.785183 0.062745
0.469612 0.778744 0.062745
0.662074 0.768704 0.062745
0.801633 0.710567 0.062745
0.901091 0.666712 0.062745
0.921569 0.698421 0.253056
0.062745 0.912566 0.062745
0.062745 0.908812 0.062745
0.128420 0.903319 0.062745
0.426703 0.897826 0.062745
0.647364 0.889982 0.062745
0.860838 0.876707 0.062745
0.921569 0.794888 0.062745
0.921569 0.756283 0.146853
0.062745 0.142916 0.182345
0.062745 0.075288 0.178500
0.347539 0.062745 0.154391
0.545434 0.062745 0.075868
0.656794 0.129671 0.083284
0.777035 0.204318 0.062745
0.892454 0.227176 0.077363
0.921569 0.245151 0.122286
0.062745 0.158877 0.200931
0.116670 0.162570 0.162081
0.287633 0.187778 0.155123
0.462043 0.228397 0.138735
0.621302 0.266270 0.105013
0.754910 0.295567 0.065614
0.877806 0.305760 0.088960
0.921569 0.314122 0.141421
0.062745 0.307622 0.273075
0.077729 0.291691 0.145449
0.287053 0.269291 0.134676
0.408850 0.331945 0.166812
0.579675 0.362524 0.135622
0.724147 0.379767 0.093416
0.856016 0.385809 0.111604
0.921569 0.389136 0.168673
0.062745 0.441810 0.202152
0.062745 0.431067 0.120546
0.291936 0.422980 0.094759
0.449531 0.387457 0.087831
0.552422 0.438788 0.143374
0.678157 0.473548 0.153292
0.823270 0.481849 0.161624
0.921569 0.484596 0.215824
0.062745 0.564508 0.100618
0.062745 0.554253 0.088685
0.262974 0.546899 0.064088
0.467079 0.538598 0.062745
0.594995 0.487800 0.062745
0.691157 0.527520 0.088716
0.784634 0.575738 0.228977
0.921569 0.583459 0.280522
0.062745 0.680751 0.062745
0.062745 0.673182 0.062745
0.232242 0.666346 0.062745
0.452857 0.659724 0.062745
0.631922 0.634882 0.062745
0.746731 0.578882 0.062745
0.828031 0.612116 0.095857
0.911315 0.668452 0.339605
0.062745 0.798306 0.062745
0.062745 0.793057 0.062745
0.192630 0.787137 0.062745
0.444495 0.781643 0.062745
0.653895 0.772793 0.062745
0.802335 0.720241 0.062745
0.902831 0.668513 0.062745
0.921569 0.700343 0.251164
0.062745 0.916686 0.062745
0.062745 0.912840 0.062745
0.062745 0.907103 0.062745
0.396826 0.901061 0.062745
0.629633 0.892332 0.062745
0.849271 0.879179 0.062745
0.921569 0.801938 0.062745
0.921569 0.756893 0.137728
0.062745 0.315526 0.389685
0.062745 0.294957 0.381109
0.238712 0.062745 0.369696
0.475288 0.062745 0.340215
0.631342 0.062745 0.284123
0.753567 0.177310 0.264652
0.869108 0.253147 0.247654
0.921569 0.284092 0.202884
0.062745 0.326055 0.384466
0.062745 0.303471 0.344518
0.222324 0.204685 0.332433
0.425147 0.210697 0.315587
0.594598 0.237797 0.290532
0.722316 0.298070 0.286748
0.852689 0.328771 0.263035
0.921569 0.342077 0.213230
0.062745 0.287999 0.361578
0.062745 0.285527 0.336492
0.195315 0.320012 0.323857
0.384558 0.334874 0.314153
0.546258 0.362554 0.310674
0.692195 0.385992 0.299290
0.833249 0.402655 0.275151
0.921569 0.409003 0.227878
0.062745 0.419379 0.441260
0.062745 0.448737 0.406561
0.147524 0.434028 0.304967
0.388586 0.404303 0.294987
0.493111 0.456062 0.328679
0.650538 0.479744 0.319493
0.803372 0.493385 0.297032
0.921569 0.496834 0.253727
0.062745 0.568200 0.428870
0.062745 0.561547 0.353582
0.087434 0.549676 0.293492
0.397253 0.538048 0.272129
0.547784 0.498146 0.268620
0.648890 0.542535 0.307591
0.769131 0.584009 0.330846
0.921569 0.590295 0.291325
0.062745 0.683742 0.346380
0.062745 0.679622 0.278416
0.062745 0.668238 0.266484
0.387915 0.658442 0.239475
0.597925 0.648829 0.189090
0.715206 0.588739 0.195682
0.811917 0.622583 0.247898
0.913512 0.669551 0.336187
0.062745 0.802823 0.213779
0.062745 0.797574 0.198825
0.062745 0.789731 0.173312
0.376959 0.781430 0.109468
0.606683 0.773251 0.062745
0.789364 0.733852 0.062745
0.901671 0.670253 0.062745
0.921569 0.701595 0.246921
0.062745 0.921569 0.062745
0.062745 0.918273 0.062745
0.062745 0.912657 0.062745
0.337011 0.904967 0.062745
0.598657 0.896086 0.062745
0.829404 0.882628 0.062745
0.921569 0.811978 0.062745
0.921569 0.757290 0.120729
0.062745 0.453620 0.551080
0.062745 0.449653 0.546166
0.062745 0.284123 0.540337
0.361913 0.123354 0.517815
0.556054 0.145846 0.481178
0.712947 0.179019 0.443458
0.851408 0.219089 0.405951
0.921569 0.317144 0.411231
0.062745 0.464851 0.537621
0.062745 0.452125 0.514031
0.062745 0.358434 0.502892
0.332189 0.263279 0.489601
0.530938 0.265110 0.467720
0.692317 0.282078 0.439399
0.836912 0.305303 0.411139
0.921569 0.374670 0.418494
0.062745 0.442573 0.523064
0.062745 0.434302 0.502586
0.062745 0.432898 0.479896
0.310185 0.351415 0.472694
0.509606 0.357702 0.456611
0.670649 0.371008 0.436225
0.808164 0.415015 0.438239
0.921569 0.431250 0.418006
0.062745 0.416724 0.510338
0.062745 0.416999 0.496071
0.062745 0.424994 0.479591
0.290837 0.459388 0.465003
0.474769 0.468177 0.454719
0.627192 0.488411 0.453742
0.781491 0.506767 0.447639
0.921569 0.515587 0.428138
0.062745 0.473671 0.580163
0.062745 0.517021 0.569238
0.062745 0.570550 0.554711
0.259678 0.558251 0.447608
0.485084 0.526055 0.436439
0.590356 0.570520 0.464759
0.749691 0.595941 0.463294
0.911742 0.605768 0.444984
0.062745 0.698207 0.615839
0.062745 0.690517 0.579370
0.062745 0.679805 0.524041
0.233860 0.666773 0.431586
0.514336 0.653559 0.408728
0.664607 0.609888 0.404028
0.770626 0.649226 0.438056
0.890837 0.692805 0.469734
0.062745 0.802152 0.573205
0.062745 0.801297 0.519615
0.062745 0.800504 0.421485
0.184695 0.786465 0.389014
0.523644 0.775479 0.353613
0.751339 0.759762 0.296483
0.867887 0.689876 0.294194
0.921569 0.713802 0.338354
0.062745 0.921569 0.405524
0.062745 0.921569 0.299779
0.062745 0.921050 0.262211
0.062745 0.911254 0.195529
0.511742 0.901457 0.062745
0.782193 0.889097 0.062745
0.921569 0.830716 0.062745
0.921569 0.758206 0.093782
0.062745 0.557275 0.669612
0.062745 0.555261 0.667109
0.062745 0.484840 0.661036
0.062745 0.290013 0.652461
0.447791 0.253056 0.631220
0.640955 0.254398 0.602716
0.800259 0.283085 0.578637
0.921569 0.320531 0.552819
0.062745 0.576745 0.657984
0.062745 0.569421 0.644068
0.062745 0.517723 0.634577
0.062745 0.377295 0.631586
0.433082 0.328191 0.617212
0.625696 0.327703 0.594202
0.788663 0.348913 0.575891
0.921569 0.376623 0.555444
0.062745 0.560174 0.646326
0.062745 0.554986 0.633539
0.062745 0.551843 0.617731
0.062745 0.462257 0.612360
0.418219 0.399542 0.603540
0.610986 0.401984 0.586572
0.777310 0.418555 0.573266
0.921569 0.439063 0.558434
0.062745 0.543542 0.638788
0.062745 0.541650 0.628107
0.062745 0.541558 0.613794
0.062745 0.547417 0.592645
0.401221 0.482673 0.589166
0.597345 0.489296 0.579065
0.768399 0.500847 0.568261
0.919738 0.534905 0.573358
0.062745 0.527977 0.634302
0.062745 0.530022 0.626215
0.062745 0.534966 0.615229
0.062745 0.548028 0.599298
0.397589 0.578759 0.584192
0.583917 0.585931 0.575036
0.745480 0.603662 0.575494
0.907469 0.617487 0.570855
0.062745 0.568109 0.700465
0.062745 0.576806 0.699458
0.062745 0.604547 0.695308
0.062745 0.681605 0.677150
0.381689 0.677760 0.568994
0.607752 0.642451 0.555261
0.722530 0.684413 0.584222
0.885832 0.707027 0.586358
0.062745 0.812284 0.778653
0.062745 0.823239 0.765713
0.062745 0.816129 0.725612
0.062745 0.801663 0.654658
0.375219 0.787594 0.547784
0.662165 0.772976 0.518669
0.819211 0.721370 0.511955
0.921569 0.753048 0.547753
0.062745 0.921569 0.726711
0.062745 0.921569 0.702235
0.062745 0.917967 0.676387
0.062745 0.920775 0.544915
0.329808 0.909239 0.469520
0.682155 0.896361 0.397314
0.921569 0.867308 0.255589
0.921569 0.764065 0.159884
0.062745 0.644465 0.766995
0.062745 0.645136 0.765194
0.062745 0.618769 0.758907
0.062745 0.525444 0.752438
0.062745 0.326665 0.754299
0.542687 0.351568 0.737270
0.736294 0.346136 0.716670
0.898405 0.380926 0.701076
0.062745 0.672511 0.758419
0.062745 0.669856 0.752743
0.062745 0.641260 0.746670
0.062745 0.562676 0.742153
0.062745 0.399573 0.744747
0.536461 0.402594 0.730343
0.728511 0.397314 0.711879
0.893584 0.425910 0.700893
0.062745 0.662531 0.753536
0.062745 0.660731 0.746883
0.062745 0.659419 0.736995
0.062745 0.603784 0.731197
0.062745 0.476448 0.732692
0.529168 0.458228 0.721706
0.720333 0.454841 0.706264
0.889311 0.477638 0.699428
0.062745 0.651759 0.749874
0.062745 0.651209 0.743740
0.062745 0.651514 0.734798
0.062745 0.653803 0.718898
0.062745 0.573571 0.716182
0.520806 0.526696 0.710536
0.715023 0.526635 0.699825
0.889250 0.543755 0.695003
0.062745 0.641016 0.749294
0.062745 0.642084 0.744106
0.062745 0.644495 0.736599
0.062745 0.650324 0.723903
0.062745 0.661463 0.704402
0.516411 0.600885 0.702235
0.720089 0.606439 0.695308
0.897063 0.620630 0.689998
0.062745 0.631403 0.752743
0.062745 0.634119 0.748501
0.062745 0.639063 0.742336
0.062745 0.649378 0.731563
0.201877 0.666804 0.715938
0.528008 0.693538 0.697566
0.719692 0.700618 0.691188
0.889555 0.717189 0.694881
0.062745 0.658320 0.811154
0.062745 0.665888 0.810666
0.062745 0.678096 0.810239
0.062745 0.701015 0.809903
0.249058 0.794339 0.792172
0.529808 0.794186 0.685298
0.759640 0.758236 0.672114
0.881926 0.797086 0.705287
0.062745 0.856779 0.889464
0.062745 0.880125 0.886198
0.062745 0.912291 0.881407
0.062745 0.921569 0.846708
0.250401 0.916014 0.768704
0.547906 0.906157 0.655756
0.845731 0.890379 0.608392
0.921569 0.815885 0.579492
0.062745 0.734737 0.854856
0.062745 0.741421 0.852781
0.062745 0.728847 0.850767
0.062745 0.671809 0.848814
0.062745 0.573480 0.849790
0.062745 0.434180 0.851865
0.652827 0.459876 0.839078
0.844114 0.449470 0.825437
0.062745 0.761227 0.848997
0.062745 0.760250 0.848264
0.062745 0.746487 0.845090
0.062745 0.693050 0.843931
0.062745 0.606867 0.844175
0.062745 0.468116 0.847623
0.651301 0.493111 0.835172
0.840635 0.481086 0.821958
0.062745 0.756374 0.849821
0.062745 0.756222 0.847349
0.062745 0.757259 0.842161
0.062745 0.723201 0.838743
0.062745 0.650446 0.837675
0.065126 0.510643 0.843046
0.651209 0.534142 0.831266
0.841093 0.521813 0.819974
0.062745 0.750240 0.851194
0.062745 0.751125 0.848508
0.062745 0.752926 0.843595
0.062745 0.757839 0.834653
0.062745 0.705104 0.831327
0.173342 0.595178 0.834989
0.652888 0.588586 0.826535
0.843961 0.580224 0.816861
0.062745 0.741848 0.852415
0.062745 0.743374 0.849943
0.062745 0.746334 0.846311
0.062745 0.752865 0.839658
0.062745 0.764004 0.826535
0.235782 0.690028 0.824826
0.656275 0.649744 0.820615
0.852689 0.649165 0.813504
0.062745 0.731899 0.856107
0.062745 0.734310 0.854002
0.062745 0.738460 0.850614
0.062745 0.747036 0.844297
0.062745 0.760983 0.833890
0.062745 0.779049 0.816770
0.664027 0.720333 0.814542
0.869474 0.726436 0.810513
0.062745 0.720302 0.862913
0.062745 0.724056 0.860899
0.062745 0.730159 0.857664
0.062745 0.742428 0.851591
0.062745 0.761471 0.841978
0.414466 0.784878 0.828336
0.693141 0.807523 0.809689
0.882261 0.816403 0.809689
0.062745 0.720027 0.912200
0.062745 0.726314 0.912016
0.062745 0.737331 0.911620
0.062745 0.759945 0.910307
0.062745 0.795682 0.907866
0.485328 0.891600 0.895689
0.729091 0.905089 0.809049
0.921569 0.870481 0.796597
0.062745 0.809995 0.921569
0.062745 0.812924 0.921569
0.062745 0.815885 0.921569
0.062745 0.779171 0.921569
0.062745 0.736812 0.921569
0.062745 0.646509 0.921569
0.408453 0.573358 0.921569
0.775357 0.593988 0.921569
0.062745 0.830991 0.921569
0.062745 0.832883 0.921569
0.062745 0.830777 0.921569
0.062745 0.794949 0.921569
0.062745 0.751949 0.921569
0.062745 0.672450 0.921569
0.415808 0.595178 0.921569
0.778042 0.614191 0.921569
0.062745 0.835294 0.921569
0.062745 0.834928 0.921569
0.062745 0.835264 0.921569
0.062745 0.817777 0.921569
0.062745 0.773251 0.921569
0.062745 0.706264 0.921569
0.424201 0.622919 0.921569
0.782437 0.640406 0.921569
0.062745 0.832731 0.921569
0.062745 0.832395 0.921569
0.062745 0.831846 0.921569
0.062745 0.839780 0.921569
0.062745 0.809628 0.921569
0.062745 0.757473 0.921569
0.432074 0.662440 0.921569
0.790524 0.678340 0.920989
0.062745 0.827024 0.921569
0.062745 0.827512 0.921569
0.062745 0.828305 0.921569
0.062745 0.832792 0.921569
0.062745 0.849302 0.921569
0.062745 0.810575 0.921233
0.471138 0.726711 0.921569
0.803281 0.726070 0.919463
0.062745 0.817624 0.921569
0.062745 0.817990 0.921569
0.062745 0.818570 0.921569
0.062745 0.823301 0.921569
0.062745 0.838437 0.921569
0.062745 0.866758 0.921233
0.543359 0.811795 0.920317
0.821592 0.781979 0.917510
0.062745 0.802518 0.921569
0.062745 0.802670 0.921569
0.062745 0.802884 0.921569
0.062745 0.807584 0.921569
0.062745 0.826139 0.921569
0.062745 0.856565 0.921569
0.478126 0.890990 0.916533
0.842191 0.847257 0.913909
0.062745 0.779263 0.921569
0.062745 0.778927 0.921569
0.062745 0.778378 0.921569
0.062745 0.779721 0.921569
0.062745 0.806180 0.921569
0.062745 0.851591 0.921569
0.700160 0.892180 0.919432
0.891752 0.909148 0.909422
