NexEditor_IOS/NexEditorSDKTests/NexEditorSDKTests/bundles/T&O - RMN Z2.cube
# Created by: Riyaz MN
LUT_3D_SIZE 5
DOMAIN_MIN 0.000000 0.000000 0.000000
DOMAIN_MAX 0.903226 0.903226 0.903226
0.065797 0.065980 0.065919
0.223301 0.062745 0.066896
0.598169 0.062745 0.062745
0.888426 0.062745 0.062745
0.921569 0.062745 0.062745
0.062745 0.197513 0.095796
0.223209 0.178927 0.062745
0.530755 0.271275 0.062745
0.850004 0.286748 0.062745
0.921569 0.304173 0.062745
0.062745 0.469764 0.062745
0.265141 0.457832 0.062745
0.523857 0.420356 0.062745
0.748989 0.517510 0.062745
0.921569 0.518059 0.110414
0.062745 0.736141 0.062745
0.263432 0.727871 0.062745
0.607630 0.712825 0.062745
0.837888 0.624353 0.062745
0.921569 0.682673 0.229038
0.062745 0.921569 0.062745
0.062745 0.921569 0.062745
0.559319 0.918486 0.062745
0.921569 0.891295 0.062745
0.921569 0.755398 0.062745
0.062745 0.224033 0.279667
0.155795 0.062745 0.258396
0.543450 0.062745 0.218448
0.838193 0.123873 0.135958
0.921569 0.244480 0.062745
0.062745 0.202121 0.258061
0.133791 0.218845 0.221988
0.463905 0.268070 0.206088
0.794522 0.336522 0.155856
0.921569 0.365728 0.062745
0.062745 0.477516 0.348852
0.062745 0.456855 0.179904
0.470008 0.416022 0.154025
0.722896 0.525780 0.199741
0.921569 0.536461 0.122347
0.062745 0.745663 0.062745
0.062745 0.729152 0.062745
0.538170 0.712520 0.062745
0.824765 0.627955 0.062745
0.921569 0.684810 0.221134
0.062745 0.921569 0.062745
0.062745 0.921569 0.062745
0.506371 0.921569 0.062745
0.921569 0.895537 0.062745
0.921569 0.756100 0.062745
0.062745 0.514366 0.621424
0.062745 0.440772 0.606867
0.393713 0.104280 0.565209
0.768093 0.062745 0.520989
0.921569 0.133822 0.436439
0.062745 0.507744 0.589960
0.062745 0.483986 0.548241
0.350896 0.287755 0.528130
0.745388 0.284154 0.498787
0.921569 0.366217 0.466133
0.062745 0.459571 0.566979
0.062745 0.454658 0.540795
0.307897 0.497993 0.506401
0.698848 0.527214 0.491829
0.921569 0.554894 0.476143
0.062745 0.752651 0.730922
0.062745 0.765103 0.675807
0.239506 0.732387 0.463264
0.747524 0.662531 0.431922
0.921569 0.734676 0.521843
0.062745 0.921569 0.610498
0.062745 0.921569 0.473121
0.062745 0.921569 0.274052
0.830167 0.907713 0.062745
0.921569 0.758480 0.062745
0.062745 0.698726 0.827420
0.062745 0.695033 0.821286
0.062745 0.497353 0.817716
0.601190 0.302312 0.805081
0.921569 0.323980 0.759579
0.062745 0.723537 0.817105
0.062745 0.720150 0.805661
0.062745 0.583764 0.800839
0.590814 0.416236 0.793393
0.921569 0.438300 0.756039
0.062745 0.704189 0.813504
0.062745 0.703670 0.804074
0.062745 0.710079 0.780331
0.580835 0.572930 0.774746
0.921569 0.603601 0.751644
0.062745 0.678065 0.819242
0.062745 0.682979 0.812711
0.062745 0.704677 0.794736
0.606439 0.756405 0.760586
0.918090 0.775143 0.760342
0.062745 0.787167 0.919310
0.062745 0.847227 0.911894
0.062745 0.921569 0.887236
0.649165 0.919097 0.734066
0.921569 0.842741 0.676997
0.062745 0.816739 0.921569
0.062745 0.822660 0.921569
0.062745 0.756313 0.921569
0.062745 0.609644 0.921569
0.793606 0.614008 0.921569
0.062745 0.843015 0.921569
0.062745 0.842313 0.921569
0.062745 0.789609 0.921569
0.062745 0.674128 0.921569
0.801694 0.661982 0.921569
0.062745 0.836393 0.921569
0.062745 0.836728 0.921569
0.062745 0.847837 0.921569
0.263890 0.780850 0.921569
0.820371 0.739254 0.921569
0.062745 0.818265 0.921569
0.062745 0.818967 0.921569
0.062745 0.828489 0.921569
0.062745 0.879728 0.921569
0.852995 0.831388 0.920928
0.062745 0.778592 0.921569
0.062745 0.777829 0.921569
0.062745 0.785672 0.921569
0.464729 0.874174 0.921569
0.903532 0.914153 0.914305
