NexEditor_IOS/NexEditorSDKTests/NexEditorSDKTests/bundles/T&O - RMN Z2.cube
# Created by: Riyaz MN
LUT_3D_SIZE 32
0.065797 0.065980 0.065919
0.065797 0.065980 0.065919
0.065797 0.065980 0.065919
0.065797 0.065980 0.065919
0.072511 0.066255 0.066682
0.107820 0.065217 0.067903
0.167483 0.062745 0.067811
0.223301 0.062745 0.066896
0.276738 0.062745 0.065949
0.330083 0.062745 0.064942
0.384741 0.062745 0.064027
0.440406 0.062745 0.062837
0.496437 0.062745 0.062745
0.550744 0.062745 0.062745
0.598169 0.062745 0.062745
0.645991 0.062745 0.062745
0.693446 0.062745 0.062745
0.739101 0.062745 0.062745
0.781003 0.062745 0.062745
0.819242 0.062745 0.062745
0.854582 0.062745 0.062745
0.888426 0.062745 0.062745
0.920745 0.062745 0.062745
0.921569 0.062745 0.062745
0.921569 0.062745 0.062745
0.921569 0.062745 0.062745
0.921569 0.062745 0.062745
0.921569 0.062745 0.062745
0.921569 0.062745 0.062745
0.921569 0.062745 0.062745
0.921569 0.075563 0.062745
0.921569 0.101320 0.066499
0.065797 0.065980 0.065919
0.065797 0.065980 0.065919
0.065797 0.065980 0.065919
0.065797 0.065980 0.065919
0.089296 0.066102 0.067597
0.136721 0.063325 0.068025
0.190616 0.062745 0.067536
0.242191 0.062745 0.066590
0.293278 0.062745 0.065614
0.344060 0.062745 0.064851
0.393378 0.062745 0.063416
0.441718 0.062745 0.062745
0.491249 0.062745 0.062745
0.541283 0.062745 0.062745
0.589776 0.062745 0.062745
0.638209 0.062745 0.062745
0.686305 0.062745 0.062745
0.732784 0.062745 0.062745
0.775296 0.062745 0.062745
0.814115 0.062745 0.062745
0.850156 0.062745 0.062745
0.884581 0.062745 0.062745
0.917479 0.062745 0.062745
0.921569 0.062745 0.062745
0.921569 0.062745 0.062745
0.921569 0.062745 0.062745
0.921569 0.062745 0.062745
0.921569 0.063172 0.062745
0.921569 0.082063 0.062745
0.921569 0.101930 0.062745
0.921569 0.125124 0.062745
0.921569 0.147585 0.069337
0.065797 0.065980 0.065919
0.065797 0.065980 0.065919
0.065797 0.065980 0.065919
0.076814 0.066712 0.067079
0.109224 0.067872 0.068055
0.152590 0.068391 0.067811
0.197086 0.068696 0.066865
0.241764 0.069123 0.065461
0.286748 0.070039 0.063874
0.333104 0.071962 0.062745
0.381201 0.074037 0.062745
0.430701 0.076692 0.062745
0.481300 0.079408 0.062745
0.532097 0.082460 0.062745
0.581445 0.085115 0.062745
0.630457 0.087739 0.062745
0.679072 0.090150 0.062745
0.726192 0.092012 0.062745
0.769253 0.093477 0.062745
0.808591 0.094484 0.062745
0.845335 0.095491 0.062745
0.880339 0.096010 0.062745
0.913695 0.096681 0.062745
0.921569 0.097505 0.062745
0.921569 0.098421 0.062745
0.921569 0.099977 0.062745
0.921569 0.101808 0.062745
0.921569 0.115694 0.062745
0.921569 0.133242 0.062745
0.921569 0.151186 0.062745
0.921569 0.168368 0.062745
0.921569 0.183352 0.072419
0.062745 0.076387 0.069215
0.062745 0.078523 0.069612
0.062745 0.080507 0.070192
0.081331 0.077699 0.066194
0.102815 0.085206 0.068299
0.137118 0.092012 0.067781
0.181979 0.096986 0.066041
0.226871 0.101411 0.064057
0.273259 0.105531 0.062745
0.320714 0.110475 0.062745
0.369909 0.115389 0.062745
0.420111 0.120668 0.062745
0.471351 0.125887 0.062745
0.523156 0.130922 0.062745
0.573266 0.135134 0.062745
0.622889 0.138827 0.062745
0.672236 0.141695 0.062745
0.719875 0.143801 0.062745
0.763699 0.144991 0.062745
0.803616 0.145357 0.062745
0.841001 0.145174 0.062745
0.876524 0.144625 0.062745
0.910338 0.143954 0.062745
0.921569 0.143526 0.062745
0.921569 0.143252 0.062745
0.921569 0.143465 0.062745
0.921569 0.151858 0.062745
0.921569 0.163973 0.062745
0.921569 0.176699 0.062745
0.921569 0.189609 0.062745
0.921569 0.201053 0.062745
0.921569 0.212253 0.075502
0.062745 0.097505 0.074067
0.062745 0.100252 0.074708
0.062745 0.101686 0.064210
0.086213 0.098665 0.063935
0.112306 0.093690 0.064637
0.140627 0.107057 0.065522
0.169192 0.118898 0.066133
0.214328 0.127901 0.063447
0.261143 0.136446 0.062745
0.309545 0.144594 0.062745
0.359350 0.152102 0.062745
0.410437 0.158907 0.062745
0.462440 0.165377 0.062745
0.514794 0.171176 0.062745
0.565332 0.175631 0.062745
0.615381 0.179171 0.062745
0.665187 0.182223 0.062745
0.713344 0.184237 0.062745
0.757656 0.185031 0.062745
0.798154 0.184787 0.062745
0.836149 0.184146 0.062745
0.872251 0.182895 0.062745
0.906554 0.181735 0.062745
0.921569 0.180514 0.062745
0.921569 0.179507 0.062745
0.921569 0.183993 0.062745
0.921569 0.192142 0.062745
0.921569 0.201236 0.062745
0.921569 0.211093 0.062745
0.921569 0.219944 0.062745
0.921569 0.228244 0.062745
0.921569 0.236698 0.078950
0.062745 0.125582 0.079896
0.062745 0.128328 0.080507
0.062745 0.127138 0.062745
0.087312 0.123598 0.062745
0.117311 0.119020 0.062745
0.147707 0.116701 0.062745
0.179080 0.135164 0.062745
0.203738 0.150057 0.063386
0.249027 0.161685 0.062745
0.298070 0.171908 0.062745
0.348425 0.181125 0.062745
0.400122 0.189517 0.062745
0.452338 0.197116 0.062745
0.505211 0.203586 0.062745
0.556481 0.208713 0.062745
0.607019 0.212772 0.062745
0.657191 0.215885 0.062745
0.705837 0.218235 0.062745
0.750790 0.218936 0.062745
0.791867 0.218479 0.062745
0.830533 0.217472 0.062745
0.867247 0.216159 0.062745
0.896818 0.213596 0.062745
0.921569 0.211765 0.062745
0.921569 0.214633 0.062745
0.921569 0.220371 0.062745
0.921569 0.226719 0.062745
0.921569 0.233860 0.062745
0.921569 0.240421 0.062745
0.921569 0.246525 0.062745
0.921569 0.252628 0.062745
0.921569 0.258915 0.080537
0.062745 0.159945 0.087434
0.062745 0.161288 0.072602
0.062745 0.157656 0.062745
0.086519 0.154299 0.062745
0.120821 0.152285 0.062745
0.147524 0.138399 0.062745
0.183749 0.145907 0.062745
0.216098 0.165713 0.062745
0.242008 0.181186 0.062745
0.282200 0.195468 0.062745
0.332616 0.206668 0.062745
0.384222 0.216770 0.062745
0.436835 0.225772 0.062745
0.490425 0.233616 0.062745
0.542229 0.239719 0.062745
0.593378 0.244724 0.062745
0.644129 0.248508 0.062745
0.693690 0.251255 0.062745
0.739528 0.252293 0.062745
0.781430 0.252018 0.062745
0.820859 0.250980 0.062745
0.858122 0.249302 0.062745
0.893370 0.247349 0.062745
0.921569 0.251041 0.062745
0.921569 0.254368 0.062745
0.921569 0.258701 0.062745
0.921569 0.263432 0.062745
0.921569 0.268070 0.062745
0.921569 0.272190 0.062745
0.921569 0.275975 0.062745
0.921569 0.279973 0.065248
0.921569 0.284764 0.086061
0.062745 0.197513 0.095796
0.062745 0.196811 0.062745
0.062745 0.191745 0.062745
0.084871 0.188479 0.062745
0.121950 0.186740 0.062745
0.159304 0.184726 0.062745
0.186587 0.166018 0.062745
0.223209 0.178927 0.062745
0.256748 0.199222 0.062745
0.284276 0.215610 0.062745
0.319158 0.231785 0.062745
0.371191 0.243992 0.062745
0.424292 0.254673 0.062745
0.478248 0.264103 0.062745
0.530755 0.271275 0.062745
0.582574 0.277104 0.062745
0.633936 0.281651 0.062745
0.684077 0.284977 0.062745
0.730678 0.286381 0.062745
0.773526 0.286229 0.062745
0.813809 0.285252 0.062745
0.850004 0.286748 0.062745
0.883879 0.288884 0.062745
0.916136 0.291112 0.062745
0.921569 0.294285 0.062745
0.921569 0.297276 0.062745
0.921569 0.299809 0.062745
0.921569 0.302098 0.062745
0.921569 0.304173 0.062745
0.921569 0.306310 0.062745
0.921569 0.308721 0.070649
0.921569 0.312016 0.093263
0.062745 0.235142 0.070619
0.062745 0.232395 0.062745
0.062745 0.227329 0.062745
0.081849 0.224399 0.062745
0.121828 0.222782 0.062745
0.162081 0.220981 0.062745
0.197482 0.215061 0.062745
0.230045 0.197238 0.062745
0.264469 0.213169 0.062745
0.298894 0.233646 0.062745
0.328344 0.250736 0.062745
0.357733 0.268467 0.062745
0.409979 0.281407 0.062745
0.464332 0.292424 0.062745
0.517449 0.301183 0.062745
0.569787 0.308049 0.062745
0.621729 0.313542 0.062745
0.672663 0.317540 0.062745
0.719722 0.319921 0.062745
0.761196 0.322759 0.062745
0.800534 0.324926 0.062745
0.837522 0.327092 0.062745
0.872557 0.328954 0.062745
0.905638 0.331090 0.062745
0.921569 0.332616 0.062745
0.921569 0.333806 0.062745
0.921569 0.334722 0.062745
0.921569 0.335302 0.062745
0.921569 0.335912 0.062745
0.921569 0.336614 0.062745
0.921569 0.338048 0.077485
0.921569 0.340002 0.102205
0.062745 0.273899 0.062745
0.062745 0.269230 0.062745
0.062745 0.264530 0.062745
0.077241 0.261814 0.062745
0.120272 0.260136 0.062745
0.163180 0.258610 0.062745
0.204257 0.256413 0.062745
0.234134 0.242161 0.062745
0.274510 0.230411 0.062745
0.307408 0.248631 0.062745
0.342870 0.269139 0.062745
0.373877 0.286595 0.062745
0.404059 0.304082 0.062745
0.449622 0.318944 0.062745
0.503197 0.329198 0.062745
0.554925 0.337652 0.062745
0.604944 0.345251 0.062745
0.654322 0.351781 0.062745
0.700618 0.356603 0.062745
0.743648 0.360388 0.062745
0.784360 0.363378 0.062745
0.822873 0.365789 0.062745
0.859648 0.367346 0.062745
0.894743 0.368261 0.062745
0.921569 0.368597 0.062745
0.921569 0.368750 0.062745
0.921569 0.368414 0.062745
0.921569 0.367895 0.062745
0.921569 0.367498 0.062745
0.921569 0.367254 0.065217
0.921569 0.367559 0.086397
0.921569 0.368597 0.113527
0.062745 0.312200 0.062745
0.062745 0.307530 0.062745
0.062745 0.302953 0.062745
0.071473 0.300206 0.062745
0.117494 0.298680 0.062745
0.163790 0.297093 0.062745
0.206729 0.295018 0.062745
0.247776 0.292576 0.062745
0.272282 0.269413 0.062745
0.317754 0.266026 0.062745
0.351568 0.284337 0.062745
0.387274 0.304479 0.062745
0.419287 0.322148 0.062745
0.449378 0.339055 0.062745
0.481147 0.356207 0.062745
0.532189 0.366827 0.062745
0.582422 0.376196 0.062745
0.632013 0.384283 0.062745
0.679652 0.390814 0.062745
0.724880 0.395453 0.062745
0.767636 0.398840 0.062745
0.808255 0.401038 0.062745
0.846860 0.402319 0.062745
0.883452 0.402808 0.062745
0.918456 0.402502 0.062745
0.921569 0.401923 0.062745
0.921569 0.401038 0.062745
0.921569 0.399756 0.062745
0.921569 0.398657 0.062745
0.921569 0.397559 0.074128
0.921569 0.397162 0.097841
0.921569 0.397559 0.127504
0.062745 0.351385 0.062745
0.062745 0.346960 0.062745
0.062745 0.342870 0.062745
0.066804 0.340459 0.062745
0.114839 0.339178 0.062745
0.163668 0.337652 0.062745
0.208896 0.335912 0.062745
0.251438 0.333837 0.062745
0.292058 0.330968 0.062745
0.312139 0.302190 0.062745
0.360937 0.302251 0.062745
0.394751 0.319890 0.062745
0.426032 0.335943 0.062745
0.458412 0.353429 0.062745
0.487709 0.369055 0.062745
0.517266 0.385473 0.062745
0.554620 0.400275 0.062745
0.604883 0.409949 0.062745
0.654475 0.418128 0.062745
0.701900 0.424323 0.062745
0.746944 0.428687 0.062745
0.789670 0.431525 0.062745
0.830228 0.433204 0.062745
0.868742 0.433783 0.062745
0.905333 0.433661 0.062745
0.921569 0.432807 0.062745
0.921569 0.431586 0.062745
0.921569 0.430030 0.062745
0.921569 0.428504 0.063233
0.921569 0.427100 0.083803
0.921569 0.426276 0.110079
0.921569 0.426246 0.142916
0.062745 0.388952 0.062745
0.062745 0.385168 0.062745
0.062745 0.381323 0.062745
0.069123 0.379889 0.062745
0.118502 0.378759 0.062745
0.167361 0.377722 0.062745
0.212711 0.376165 0.062745
0.255528 0.374395 0.062745
0.296971 0.372259 0.062745
0.331853 0.363836 0.062745
0.351690 0.334325 0.062745
0.403082 0.336706 0.062745
0.436286 0.353399 0.062745
0.470436 0.370855 0.062745
0.501854 0.386816 0.062745
0.530999 0.401678 0.062745
0.560632 0.417365 0.062745
0.590661 0.433631 0.062745
0.635920 0.445350 0.062745
0.685115 0.452949 0.062745
0.731777 0.458350 0.062745
0.776059 0.461921 0.062745
0.818112 0.463966 0.062745
0.857908 0.464790 0.062745
0.895659 0.464668 0.062745
0.921569 0.463813 0.062745
0.921569 0.462470 0.062745
0.921569 0.460731 0.062745
0.921569 0.458869 0.075196
0.921569 0.457160 0.098817
0.921569 0.455940 0.128145
0.921569 0.455512 0.161746
0.062745 0.429694 0.062745
0.062745 0.425971 0.062745
0.062745 0.422705 0.062745
0.072663 0.421698 0.062745
0.122835 0.420752 0.062745
0.172274 0.419684 0.062745
0.217533 0.418280 0.062745
0.260960 0.416602 0.062745
0.302892 0.414527 0.062745
0.343908 0.412085 0.062745
0.374060 0.397833 0.062745
0.397314 0.370550 0.062745
0.448249 0.372534 0.062745
0.480323 0.387610 0.062745
0.513298 0.403632 0.062745
0.545312 0.419226 0.062745
0.574670 0.433417 0.062745
0.604578 0.448493 0.062745
0.635279 0.464546 0.062745
0.668849 0.479408 0.062745
0.716915 0.486030 0.062745
0.762631 0.490517 0.062745
0.805905 0.493233 0.062745
0.846921 0.494514 0.062745
0.885710 0.494697 0.062745
0.921569 0.493935 0.062745
0.921569 0.492561 0.062745
0.921569 0.490730 0.069825
0.921569 0.488716 0.090913
0.921569 0.486915 0.117311
0.921569 0.485420 0.149447
0.921569 0.484779 0.181918
0.062745 0.469764 0.062745
0.062745 0.466316 0.062745
0.062745 0.463691 0.062745
0.073182 0.462715 0.062745
0.125032 0.461799 0.062745
0.175021 0.460700 0.062745
0.220951 0.459449 0.062745
0.265141 0.457832 0.062745
0.307805 0.455818 0.062745
0.349615 0.453376 0.062745
0.390845 0.450629 0.062745
0.416205 0.430549 0.062745
0.443214 0.405554 0.062745
0.491951 0.406043 0.062745
0.523857 0.420356 0.062745
0.556756 0.435615 0.062745
0.589197 0.450843 0.062745
0.619104 0.464729 0.062745
0.649165 0.479164 0.062745
0.679011 0.493935 0.062745
0.708431 0.508965 0.062745
0.748989 0.517510 0.062745
0.793545 0.521050 0.062745
0.835660 0.522942 0.062745
0.875578 0.523552 0.062745
0.913146 0.523095 0.062745
0.921569 0.521843 0.067933
0.921569 0.520043 0.086580
0.921569 0.518059 0.110414
0.921569 0.516045 0.140108
0.921569 0.514488 0.171267
0.921569 0.513695 0.203006
0.062745 0.507988 0.062745
0.062745 0.504814 0.062745
0.062745 0.502464 0.062745
0.071138 0.501488 0.062745
0.124788 0.500420 0.062745
0.175479 0.499458 0.062745
0.222507 0.498085 0.062745
0.267063 0.496315 0.062745
0.310674 0.494270 0.062745
0.353033 0.492012 0.062745
0.395056 0.489357 0.062745
0.436683 0.486458 0.062745
0.457160 0.460914 0.062745
0.488136 0.438331 0.062745
0.536217 0.438880 0.062745
0.568414 0.452735 0.062745
0.601556 0.467384 0.062745
0.634058 0.481941 0.062745
0.663447 0.494850 0.062745
0.692653 0.508141 0.062745
0.721401 0.521721 0.062745
0.749660 0.535515 0.062745
0.780911 0.547478 0.062745
0.824125 0.550103 0.062745
0.865019 0.551293 0.062745
0.903471 0.551202 0.069764
0.921569 0.550317 0.086183
0.921569 0.548669 0.107424
0.921569 0.546777 0.134401
0.921569 0.544854 0.164187
0.921569 0.543359 0.194522
0.921569 0.542687 0.226108
0.062745 0.545983 0.062745
0.062745 0.543023 0.062745
0.062745 0.541070 0.062745
0.068330 0.540093 0.062745
0.123049 0.539208 0.062745
0.175387 0.538293 0.062745
0.223636 0.536919 0.062745
0.269230 0.535393 0.062745
0.313481 0.533593 0.062745
0.357031 0.531365 0.062745
0.399939 0.529015 0.062745
0.442451 0.526299 0.062745
0.481300 0.520043 0.062745
0.500481 0.492012 0.062745
0.535760 0.471962 0.062745
0.583215 0.472541 0.062745
0.615595 0.485756 0.062745
0.647333 0.498787 0.062745
0.678035 0.511406 0.062745
0.706661 0.523247 0.062745
0.734798 0.535454 0.062745
0.762478 0.547967 0.062745
0.789548 0.560845 0.062745
0.816068 0.574243 0.062745
0.854643 0.578241 0.076539
0.893950 0.578668 0.090639
0.921569 0.578119 0.109377
0.921569 0.576776 0.133883
0.921569 0.575128 0.161257
0.921569 0.573358 0.189578
0.921569 0.571984 0.219364
0.921569 0.571313 0.250797
0.062745 0.584405 0.062745
0.062745 0.581689 0.062745
0.062745 0.577386 0.062745
0.062745 0.576837 0.062745
0.118196 0.576043 0.062745
0.173007 0.575067 0.062745
0.222599 0.573907 0.062745
0.269566 0.572442 0.062745
0.314641 0.570825 0.062745
0.359167 0.568841 0.062745
0.402838 0.566674 0.062745
0.446387 0.564233 0.062745
0.489784 0.561578 0.062745
0.524254 0.550256 0.062745
0.543908 0.521630 0.062745
0.583886 0.504143 0.062745
0.629816 0.504570 0.062745
0.660487 0.515923 0.062745
0.690272 0.527092 0.062745
0.718959 0.538018 0.062745
0.746792 0.548943 0.062745
0.774166 0.560235 0.062745
0.800992 0.572015 0.062745
0.827207 0.584283 0.062745
0.852567 0.597192 0.072816
0.883757 0.605005 0.115877
0.921447 0.605005 0.137636
0.921569 0.604181 0.162173
0.921569 0.602777 0.188235
0.921569 0.601312 0.215885
0.921569 0.600122 0.245365
0.921569 0.599756 0.277165
0.062745 0.623133 0.062745
0.062745 0.620569 0.062745
0.062745 0.618250 0.062745
0.062745 0.617548 0.062745
0.106538 0.616876 0.062745
0.168643 0.616297 0.062745
0.222538 0.615442 0.062745
0.271366 0.614130 0.062745
0.318090 0.612512 0.062745
0.363897 0.610620 0.062745
0.409125 0.608545 0.062745
0.453925 0.606195 0.062745
0.498695 0.603662 0.062745
0.543267 0.600885 0.062745
0.573327 0.584253 0.062745
0.593256 0.554620 0.062745
0.636622 0.538018 0.062745
0.678553 0.536797 0.062745
0.707210 0.546166 0.062745
0.734737 0.555352 0.062745
0.761227 0.564446 0.062745
0.787747 0.574304 0.062745
0.814176 0.584771 0.062745
0.839841 0.595758 0.062745
0.864714 0.607385 0.062745
0.888548 0.619776 0.097017
0.912779 0.631556 0.168246
0.921569 0.631159 0.191409
0.921569 0.630152 0.216648
0.921569 0.629023 0.244053
0.921569 0.628107 0.273655
0.921569 0.628046 0.305852
0.062745 0.663111 0.062745
0.062745 0.660670 0.062745
0.062745 0.658167 0.062745
0.062745 0.657282 0.062745
0.090791 0.656611 0.062745
0.158724 0.656001 0.062745
0.218357 0.655268 0.062745
0.271244 0.654261 0.062745
0.319921 0.652735 0.062745
0.367102 0.651026 0.062745
0.413642 0.648981 0.062745
0.459785 0.646723 0.062745
0.505577 0.644251 0.062745
0.551568 0.641505 0.062745
0.597528 0.638483 0.062745
0.622431 0.616388 0.062745
0.642542 0.585687 0.062745
0.687953 0.569177 0.062745
0.725917 0.566766 0.062745
0.752438 0.574304 0.062745
0.777890 0.581781 0.062745
0.802121 0.589288 0.062745
0.827359 0.598077 0.062745
0.852598 0.607843 0.062745
0.877073 0.618219 0.062745
0.900481 0.629389 0.062745
0.921569 0.641505 0.134737
0.921569 0.654841 0.212863
0.921569 0.656977 0.246433
0.921569 0.656184 0.273777
0.921569 0.655665 0.303624
0.921569 0.655940 0.336492
0.062745 0.701106 0.062745
0.062745 0.698878 0.062745
0.062745 0.696620 0.062745
0.062745 0.695369 0.062745
0.075471 0.694697 0.062745
0.147463 0.694026 0.062745
0.212284 0.693263 0.062745
0.269047 0.692348 0.062745
0.319371 0.690913 0.062745
0.368078 0.689204 0.062745
0.415808 0.687282 0.062745
0.463233 0.685115 0.062745
0.510155 0.682673 0.062745
0.557092 0.679957 0.062745
0.604242 0.676936 0.062745
0.651453 0.673671 0.062745
0.670649 0.645808 0.062745
0.690700 0.614099 0.062745
0.737423 0.597314 0.062745
0.771267 0.594263 0.062745
0.795590 0.600061 0.062745
0.818845 0.605982 0.062745
0.841032 0.612146 0.062745
0.864500 0.619867 0.062745
0.888487 0.628992 0.062745
0.911498 0.638880 0.062745
0.921569 0.649775 0.086427
0.921569 0.661921 0.178988
0.921569 0.675532 0.255436
0.921569 0.682063 0.303105
0.921569 0.681910 0.333440
0.921569 0.682612 0.366888
0.062745 0.736141 0.062745
0.062745 0.734157 0.062745
0.062745 0.732235 0.062745
0.062745 0.730800 0.062745
0.062745 0.730251 0.062745
0.134493 0.729641 0.062745
0.205234 0.728908 0.062745
0.263432 0.727871 0.062745
0.315740 0.726467 0.062745
0.366064 0.724788 0.062745
0.415076 0.722896 0.062745
0.463539 0.720760 0.062745
0.511528 0.718410 0.062745
0.559686 0.715755 0.062745
0.607630 0.712825 0.062745
0.655787 0.709621 0.062745
0.698299 0.701289 0.062745
0.717525 0.672724 0.062745
0.738643 0.640803 0.062745
0.785367 0.622889 0.062745
0.815305 0.619867 0.062745
0.837888 0.624353 0.062745
0.859373 0.629084 0.062745
0.879637 0.634119 0.062745
0.901183 0.640925 0.062745
0.921569 0.649653 0.062745
0.921569 0.659327 0.062745
0.921569 0.670253 0.138460
0.921569 0.682673 0.229038
0.921569 0.697078 0.306310
0.921569 0.708370 0.367071
0.921569 0.709346 0.400519
0.062745 0.770535 0.062745
0.062745 0.768765 0.062745
0.062745 0.766995 0.062745
0.062745 0.765347 0.062745
0.062745 0.764736 0.062745
0.121279 0.764096 0.062745
0.194003 0.763210 0.062745
0.254124 0.762051 0.062745
0.309392 0.760678 0.062745
0.361639 0.759060 0.062745
0.412329 0.757229 0.062745
0.461982 0.755154 0.062745
0.511131 0.752834 0.062745
0.560327 0.750210 0.062745
0.609277 0.747372 0.062745
0.658381 0.744137 0.062745
0.707912 0.740627 0.062745
0.744900 0.727260 0.062745
0.764157 0.697780 0.062745
0.788418 0.667048 0.062745
0.832273 0.646448 0.062745
0.858457 0.643854 0.062745
0.879088 0.647150 0.062745
0.898497 0.650782 0.062745
0.917144 0.655085 0.062745
0.921569 0.660975 0.062745
0.921569 0.669398 0.062745
0.921569 0.679072 0.088716
0.921569 0.690303 0.198093
0.921569 0.703548 0.284642
0.921569 0.719326 0.364508
0.921569 0.735409 0.435798
0.062745 0.802365 0.062745
0.062745 0.800687 0.062745
0.062745 0.799069 0.062745
0.062745 0.797452 0.062745
0.062745 0.796475 0.062745
0.091066 0.795773 0.062745
0.173709 0.794980 0.062745
0.240421 0.793912 0.062745
0.298863 0.792721 0.062745
0.353643 0.791226 0.062745
0.406256 0.789578 0.062745
0.457588 0.787625 0.062745
0.508324 0.785428 0.062745
0.558495 0.782986 0.062745
0.608698 0.780270 0.062745
0.658808 0.777249 0.062745
0.709316 0.773861 0.062745
0.760159 0.770077 0.062745
0.791440 0.751705 0.062745
0.810727 0.721462 0.062745
0.837339 0.691371 0.062745
0.878355 0.668238 0.062745
0.900786 0.666499 0.062745
0.919493 0.668727 0.062745
0.921569 0.671473 0.062745
0.921569 0.674800 0.062745
0.921569 0.679896 0.062745
0.921569 0.688319 0.062745
0.921569 0.698329 0.159792
0.921569 0.710445 0.260288
0.921569 0.725185 0.347692
0.921569 0.742489 0.428901
0.062745 0.833524 0.062745
0.062745 0.831998 0.062745
0.062745 0.830472 0.062745
0.062745 0.829038 0.062745
0.062745 0.827543 0.062745
0.062745 0.826719 0.062745
0.142672 0.825895 0.062745
0.220401 0.824826 0.062745
0.284337 0.823575 0.062745
0.342321 0.822110 0.062745
0.397192 0.820432 0.062745
0.450416 0.818509 0.062745
0.502495 0.816373 0.062745
0.553887 0.813962 0.062745
0.605127 0.811276 0.062745
0.656214 0.808316 0.062745
0.707637 0.804990 0.062745
0.759304 0.801297 0.062745
0.811398 0.797177 0.062745
0.836545 0.773800 0.062745
0.855833 0.742794 0.062745
0.884306 0.713039 0.062745
0.921569 0.687617 0.062745
0.921569 0.687221 0.062745
0.921569 0.688533 0.062745
0.921569 0.690547 0.062745
0.921569 0.693233 0.062745
0.921569 0.697688 0.062745
0.921569 0.706416 0.106966
0.921569 0.717281 0.230900
0.921569 0.730800 0.327276
0.921569 0.747311 0.415473
0.062745 0.862669 0.062745
0.062745 0.861326 0.062745
0.062745 0.859953 0.062745
0.062745 0.858640 0.062745
0.062745 0.857328 0.062745
0.062745 0.855894 0.062745
0.096010 0.855009 0.062745
0.191623 0.854002 0.062745
0.263828 0.852811 0.062745
0.326452 0.851377 0.062745
0.384344 0.849729 0.062745
0.439643 0.847837 0.062745
0.493538 0.845762 0.062745
0.546441 0.843381 0.062745
0.598993 0.840757 0.062745
0.651179 0.837858 0.062745
0.703456 0.834623 0.062745
0.756100 0.830991 0.062745
0.808957 0.826963 0.062745
0.862425 0.822477 0.062745
0.880919 0.794095 0.062745
0.900237 0.762295 0.062745
0.921569 0.732540 0.062745
0.921569 0.706569 0.062745
0.921569 0.706416 0.062745
0.921569 0.706996 0.062745
0.921569 0.708461 0.062745
0.921569 0.710872 0.062745
0.921569 0.714961 0.062745
0.921569 0.724483 0.195712
0.921569 0.736782 0.305028
0.921569 0.752560 0.401740
0.062745 0.890288 0.062745
0.062745 0.889067 0.062745
0.062745 0.887846 0.062745
0.062745 0.886625 0.062745
0.062745 0.885344 0.062745
0.062745 0.884001 0.062745
0.062745 0.882322 0.062745
0.146975 0.881224 0.062745
0.234714 0.879911 0.062745
0.303990 0.878416 0.062745
0.366278 0.876677 0.062745
0.424353 0.874754 0.062745
0.480293 0.872587 0.062745
0.534661 0.870207 0.062745
0.588464 0.867582 0.062745
0.641810 0.864714 0.062745
0.695064 0.861509 0.062745
0.748531 0.857969 0.062745
0.802060 0.854063 0.062745
0.856168 0.849699 0.062745
0.903990 0.840726 0.062745
0.921569 0.811673 0.062745
0.921569 0.779141 0.062745
0.921569 0.749111 0.062745
0.921569 0.724269 0.062745
0.921569 0.723476 0.062745
0.921569 0.723568 0.062745
0.921569 0.724788 0.062745
0.921569 0.727321 0.062745
0.921569 0.731319 0.146426
0.921569 0.742428 0.277287
0.921569 0.757351 0.384833
0.062745 0.915404 0.062745
0.062745 0.914275 0.062745
0.062745 0.913176 0.062745
0.062745 0.912047 0.062745
0.062745 0.910979 0.062745
0.062745 0.909758 0.062745
0.062745 0.908202 0.062745
0.076905 0.906523 0.062745
0.192416 0.905333 0.062745
0.274144 0.903929 0.062745
0.342443 0.902342 0.062745
0.404700 0.900511 0.062745
0.463508 0.898466 0.062745
0.519921 0.896208 0.062745
0.575433 0.893675 0.062745
0.630152 0.890867 0.062745
0.684688 0.887755 0.062745
0.739040 0.884276 0.062745
0.793576 0.880430 0.062745
0.848325 0.876188 0.062745
0.903746 0.871489 0.062745
0.921569 0.858030 0.062745
0.921569 0.828183 0.062745
